!!!!SEGMENT: pl-wn--mus-iii-93-989-3_zelenski-wladyslaw--masovienne-op-47-nr-3.krn
!!!cenid: 18xx:3725
!!!COM: Żeleński, Władysław
!!!COM-rismID: pe41024455
!!!CDT: 1837/07/06-1921/01/23
!!!CNT: Polish
!!!OTL: Masovienne op. 47 nr 3
!!!PDT:
!!!AGN:
!!!SMS-siglum: PL-Wn
!!!SMS-shelfmark: Mus.III.93.989/3
!!!SMS-shelfwork: W
!!!SMS-variant:
!!!SMS-altvar:
!!!NIFC-rismSourceID:
!!!NIFC-islandoraID:
!!!URL-pdf-islandora:
!!!URL-scan: https://polona.pl/item/suite-de-danses-polonaises-pour-orchestre-op-47-nr-3-masovienne,MTE4NDMyOTAx/0 @EN{Scan on Polona} @PL{Skany w portalu Polona}
!!!ONB-nifc:
!!!AIN: 4 piano
!!!key:
**kern	**kern	**dynam	**kern	**dynam	**kern	**dynam
*part4	*part3	*part3	*part2	*part2	*part1	*part1
*staff4	*staff3	*	*staff2	*	*staff1	*
*Ipiano	*Ipiano	*	*Ipiano	*	*Ipiano	*
*I"Piano	*I"Piano	*	*I"Piano	*	*I"Piano	*
*I'P-no	*I'pf	*	*I'P-no	*	*I'pf	*
*clefF4	*clefF4	*	*clefG2	*	*clefG2	*
*k[b-e-a-]	*k[b-e-a-]	*	*k[b-e-a-]	*	*k[b-e-a-]	*
*E-:	*E-:	*	*E-:	*	*E-:	*
*M3/4	*M3/4	*	*M3/4	*	*M3/4	*
=1	=1	=1	=1	=1	=1	=1
*xywh-#2:378,566,3770,1360	*xywh-#2:378,566,3770,1360	*	*xywh-#3:157,639,3669,1342	*	*xywh-#3:157,639,3669,1342	*
!	!LO:TX:a:t=Tempo di Mazurka, animato.	!	!	!	!LO:TX:a:t=Tempo di Mazurka, animato.	!
2.r	2G\	f	2g/	.	2.r	f
.	8.G\L	.	8.g/L	.	.	.
.	16G\Jk	.	16g/Jk	.	.	.
=2	=2	=2	=2	=2	=2	=2
2.r	2G\	.	2g/	.	2.r	.
.	8.G\L	.	8.g/L	.	.	.
.	16G\Jk	.	16g/Jk	.	.	.
=3	=3	=3	=3	=3	=3	=3
2.r	4G\	.	4g/	.	2.r	.
!	!LO:TX:t=P:problem=klamra łukowa	!	!LO:TX:t=P:problem=klamra łukowa	!	!	!
.	12G\L	.	12g/L	.	.	.
.	12G\	.	12g/	.	.	.
.	12G\J	.	12g/J	.	.	.
.	[4G\	.	[4g/	.	.	.
=4	=4	=4	=4	=4	=4	=4
2.r	8.G\L]	.	8.g/L]	.	2.r	.
.	16G\Jk	.	16g/Jk	.	.	.
.	4G\	.	4g/	.	.	.
.	[4G\	.	[4g/	.	.	.
=5	=5	=5	=5	=5	=5	=5
8.r	8.G\L]	.	8.g/L]	.	2.r	p
16DD/	(16D\Jk	p	(16d/Jk	.	.	.
4EE-/	4E-\)	.	4e-/)	.	.	.
4GG/	4G'\	.	4g'/	.	.	.
=6	=6	=6	=6	=6	=6	=6
8.EE-/L	8.E-/L	.	8.e-/L	.	2.r	.
16BBBn/Jk	(16BBn/Jk	.	(16Bn/Jk	.	.	.
4CC/	4C/)	.	4c/)	.	.	.
4EE-/	4E-'\	.	4d'/	.	.	.
=7	=7	=7	=7	=7	=7	=7
8.GG/L	8.G\L	.	(8g'/L	.	2.r	.
.	.	.	8d/	.	.	.
16DD/Jk	(16D\K	.	.	.	.	.
8EE-/L	8E-\	.	8e-/	.	.	.
8GG/J	8G\	.	8g/	.	.	.
8AAn/L	8An\	.	8an/	.	.	.
8C/J	8c\J	.	8cc/J	.	.	.
!!LO:LB:g=original
=8	=8	=8	=8	=8	=8	=8
*xywh-#2:630,1920,3505,736	*xywh-#2:630,1920,3505,736	*	*xywh-#3:157,1948,3655,797	*	*xywh-#3:157,1948,3655,797	*
2BB-/	2B-\)	.	2b-\)	.	2.r	.
8AAn/L	(8An\L	.	8an\L	.	.	.
8C/J	8c\J	.	(8cc\J	.	.	.
=9	=9	=9	=9	=9	=9	=9
8.BB-/L	8.B-\L)	<	8.b-/L)	.	2.r	<
16DD/Jk	(16D\K	.	(16d/K	.	.	.
8EE-/L	8E-\	.	8e-/	.	.	.
8GG/J	8G\	.	8g/	.	.	.
8AAn/L	8An\	.	8an/	.	.	.
8C/J	8c\J	.	8cc/J	.	.	.
=10	=10	=10	=10	=10	=10	=10
8.BB-/L	8.B-\L)	.	8.b-\L)	.	2.r	.
16FF/Jk	(16F\K	.	(16f\K	.	.	.
8GG/L	8G\	.	8g\	.	.	.
8BB-/J	8B-\	.	8b-\	.	.	.
*	*clefG2	*	*	*	*	*
8D\L	8d\	.	8dd\	.	.	.
8F\J	8f\J	.	8ff\J	.	.	.
=11	=11	=11	=11	=11	=11	=11
8.E-/L	8.e-/L)	.	8.ee-\L)	.	2.r	[[
16BBn/Jk	(16Bn/K	.	(16bn\K	.	.	.
8C/L	8c/	.	8cc\	.	.	.
8E-/J	8e-/	.	8ee-\	.	.	.
8G\L	8g/	.	8gg\	.	.	.
8B-\J	8b-/J	[[	8bb-\J	.	.	.
=12	=12	=12	=12	=12	=12	=12
8.A-\L	8.a-/L)	.	8.aa-\L)	.	8.r	<
*	*	*	*	*	*8va	*
16En\Jk	(16en/K	<	(16een\K	.	16eeen\KL	.
8F\L	8f/	.	8ff\	.	8fff\	.
8A-\J	8a-/	.	8aa-\	.	8aaa-\	.
8Bn\L	8bn/	.	8bbn\	.	8bbbn\	.
8d\J	8dd/J	[[	8ddd\J	.	8dddd\J	.
=13	=13	=13	=13	=13	=13	=13
8c\	8cc\)	.	8ccc\)	.	8cccc\	.
*	*	*	*	*	*X8va	*
8r	8r	.	8r	.	8r	.
*	*clefF4	*	*	*	*	*
4r	4.A-^\ 4.e-	p	4.f^/ 4.cc	.	4r	[ p
4r	.	.	.	.	4r	.
.	8A-\ 8e-	.	8f/ 8cc	.	.	.
!!LO:LB:g=original
=14	=14	=14	=14	=14	=14	=14
*xywh-#2:617,2663,3578,750	*xywh-#2:617,2663,3578,750	*	*xywh-#3:144,2719,3688,751	*	*xywh-#3:144,2719,3688,751	*
2.r	8.A-\L 8.e-	.	8.f/L 8.cc	.	2.r	.
.	16A-\Jk 16e-	.	16f/Jk 16cc	.	.	.
.	4A-\ 4e-	.	4f/ 4cc	.	.	.
.	4A-\ 4e-	.	4f/ 4cc	.	.	.
=15	=15	=15	=15	=15	=15	=15
*	*	*	*^	*	*^	*
*	*	*	*	*xywh-#3:144,2719,3688,751	*	*	*xywh-#3:144,2719,3688,751	*
4r	8A-\ 8e-	.	8f/ 8cc	4ryy	.	4r	4ryy	.
.	8r	.	8r	.	.	.	.	.
32BBB-/LLL	4.F\ 4.A-	f	[2cc/	[4e-\ [4f	.	[4ccc/	[4ee-\ [4aa-	f <
32BB-/	.	.	.	.	.	.	.	.
32BBB-/	.	.	.	.	.	.	.	.
32BB-/	.	.	.	.	.	.	.	.
32BBB-/	.	.	.	.	.	.	.	.
32BB-/	.	.	.	.	.	.	.	.
32BBB-/	.	.	.	.	.	.	.	.
32BB-/	.	.	.	.	.	.	.	.
32BBB-/	.	.	.	8e-\] 8f]	.	8ccc/L]	8ee-\] 8aa-]	.
32BB-/	.	.	.	.	.	.	.	.
32BBB-/	.	.	.	.	.	.	.	.
32BB-/	.	.	.	.	.	.	.	.
32BBB-/	(8C/	.	.	8r	.	(8bb-/J	8r	.
32BB-/	.	.	.	.	.	.	.	.
32BBB-/	.	.	.	.	.	.	.	.
32BB-/JJJ	.	.	.	.	.	.	.	.
*	*	*	*v	*v	*	*	*	*
*	*	*	*	*	*v	*v	*
=16	=16	=16	=16	=16	=16	=16
(32BBB-/LLL	8D\L	<	8cc/L]	.	8aa-\L	.
32BB-/	.	.	.	.	.	.
32BBB-/	.	.	.	.	.	.
32BB-/	.	.	.	.	.	.
32BBB-/	8E-\	.	8b-/	.	8gg\	.
32BB-/	.	.	.	.	.	.
32BBB-/	.	.	.	.	.	.
32BB-/	.	.	.	.	.	.
32BBB-/	8F\	.	8a-/	.	8ff\	.
32BB-/	.	.	.	.	.	.
32BBB-/	.	.	.	.	.	.
32BB-/	.	.	.	.	.	.
32BBB-/	8G\	.	8g/	.	8ee-\	.
32BB-/	.	.	.	.	.	.
32BBB-/	.	.	.	.	.	.
32BB-/	.	.	.	.	.	.
32BBB-/	8A-\	.	8f/	.	8dd\	.
32BB-/	.	.	.	.	.	.
32BBB-/	.	.	.	.	.	.
32BB-/	.	.	.	.	.	.
32BBB-/	8An\J	[[	8e-/J	.	8cc\J	[[
32BB-/	.	.	.	.	.	.
32BBB-/	.	.	.	.	.	.
32BB-/JJJ	.	.	.	.	.	.
=17	=17	=17	=17	=17	=17	=17
8BBB-/) 8BB-	8B-\)	.	8d/	.	8b-\)	.
8r	8r	.	8r	.	8r	.
4r	4.F^\ 4.A- 4.e-	p	4.f^/ 4.a-	.	4.ee-^\ 4.ff	p
4r	.	.	.	.	.	.
.	8F\ 8A- 8e-	.	8f/ 8a-	.	8ee-\ 8ff	.
=18	=18	=18	=18	=18	=18	=18
2.r	8.F\L 8.A- 8.e-	.	8.f/L 8.a-	.	8.ee-\L 8.ff	.
.	16F\Jk 16A- 16e-	.	16f/Jk 16a-	.	16ee-\Jk 16ff	.
.	4F\ 4A- 4e-	.	4f/ 4a-	.	4ee-\ 4ff	.
.	4F\ 4A- 4e-	.	4f/ 4a-	.	4ee-\ 4ff	.
=19	=19	=19	=19	=19	=19	=19
*	*	*	*^	*	*^	*
*	*	*	*	*	*	*	*xywh-#3:144,2719,3688,751	*
4r	8F\ 8A- 8e-	.	8f/ 8a-	4ryy	.	8ee-\ 8ff	4ryy	.
.	8r	.	8r	.	.	8r	.	.
32BBB-/LLL	4.A-\ 4.c	f	[4cc/	[4f\ [4a-	.	[4aa-/	[4ee-\	f
32BB-/	.	.	.	.	.	.	.	.
32BBB-/	.	.	.	.	.	.	.	.
32BB-/	.	.	.	.	.	.	.	.
32BBB-/	.	.	.	.	.	.	.	.
32BB-/	.	.	.	.	.	.	.	.
32BBB-/	.	.	.	.	.	.	.	.
32BB-/	.	.	.	.	.	.	.	.
32BBB-/	.	.	8cc/L]	8f\] 8a-]	.	8aa-/L]	8ee-\]	p <
32BB-/	.	.	.	.	.	.	.	.
32BBB-/	.	.	.	.	.	.	.	.
32BB-/	.	.	.	.	.	.	.	.
32BBB-/	(8C/	p	(8b-/J	8ryy	.	(8gg/J	8r	.
32BB-/	.	.	.	.	.	.	.	.
32BBB-/	.	.	.	.	.	.	.	.
32BB-/JJJ	.	.	.	.	.	.	.	.
*	*	*	*v	*v	*	*	*	*
*	*	*	*	*	*v	*v	*
!!LO:LB:g=original
=20	=20	=20	=20	=20	=20	=20
*xywh-#2:603,3394,3584,716	*xywh-#2:603,3394,3584,716	*	*xywh-#3:179,3428,3569,757	*	*xywh-#3:179,3428,3569,757	*
32BBB-/LLL	8D\L	<	8a-/L	.	8ff\L	.
32BB-/	.	.	.	.	.	.
32BBB-/	.	.	.	.	.	.
32BB-/	.	.	.	.	.	.
32BBB-/	8E-\	.	8g/	.	8ee-\	.
32BB-/	.	.	.	.	.	.
32BBB-/	.	.	.	.	.	.
32BB-/	.	.	.	.	.	.
32BBB-/	8F\	.	8f/	.	8dd\	.
32BB-/	.	.	.	.	.	.
32BBB-/	.	.	.	.	.	.
32BB-/	.	.	.	.	.	.
32BBB-/	8G\	.	8e-/	.	8cc\	.
32BB-/	.	.	.	.	.	.
32BBB-/	.	.	.	.	.	.
32BB-/	.	.	.	.	.	.
32BBB-/	8A-\	.	8d/	.	8b-\	.
32BB-/	.	.	.	.	.	.
32BBB-/	.	.	.	.	.	.
32BB-/	.	.	.	.	.	.
32BBB-/	8An\J	[[	8c/J 8e-	.	8an\J	[[
32BB-/	.	.	.	.	.	.
32BBB-/	.	.	.	.	.	.
32BB-/JJJ	.	.	.	.	.	.
=21	=21	=21	=21	=21	=21	=21
32BBB-/LLL	4.B-\)	<	8f/)	.	8a-X/L)	<
32BB-/	.	.	.	.	.	.
32BBB-/	.	.	.	.	.	.
32BB-/	.	.	.	.	.	.
32BBB-/	.	.	8r	.	(8g/	.
32BB-/	.	.	.	.	.	.
32BBB-/	.	.	.	.	.	.
32BB-/	.	.	.	.	.	.
32BBB-/	.	.	4r	.	8f/	.
32BB-/	.	.	.	.	.	.
32BBB-/	.	.	.	.	.	.
32BB-/	.	.	.	.	.	.
32BBB-/	(8An\L	.	.	.	8e-/	.
32BB-/	.	.	.	.	.	.
32BBB-/	.	.	.	.	.	.
32BB-/	.	.	.	.	.	.
32BBB-/	8A-X\	.	4r	.	8d/	.
32BB-/	.	.	.	.	.	.
32BBB-/	.	.	.	.	.	.
32BB-/	.	.	.	.	.	.
32BBB-/	8G\J	[[	.	.	8e-/J	.
32BB-/	.	.	.	.	.	.
32BBB-/	.	.	.	.	.	.
32BB-/JJJ	.	.	.	.	.	.
=22	=22	=22	=22	=22	=22	=22
32BBB-/LLL	8F\L	.	(8d/L	.	8f/L	.
32BB-/	.	.	.	.	.	.
32BBB-/	.	.	.	.	.	.
32BB-/	.	.	.	.	.	.
32BBB-/	8E-\	.	8e-/	.	8g/	.
32BB-/	.	.	.	.	.	.
32BBB-/	.	.	.	.	.	.
32BB-/	.	.	.	.	.	.
32BBB-/	8D\	.	8f/	.	8a-/	.
32BB-/	.	.	.	.	.	.
32BBB-/	.	.	.	.	.	.
32BB-/	.	.	.	.	.	.
32BBB-/	8c\	.	8e-/	.	8an/	.
32BB-/	.	.	.	.	.	.
32BBB-/	.	.	.	.	.	.
32BB-/	.	.	.	.	.	.
32BBB-/	8B-\	.	8d/	.	8b-/	.
32BB-/	.	.	.	.	.	.
32BBB-/	.	.	.	.	.	.
32BB-/	.	.	.	.	.	.
32BBB-/	8An\J	.	8e-/J	.	8cc/J	.
32BB-/	.	.	.	.	.	.
32BBB-/	.	.	.	.	.	.
32BB-/JJJ	.	.	.	.	.	.
=23	=23	=23	=23	=23	=23	=23
32BBB-/LLL	8A-X\L)	.	8f/L)	.	8dd\L)	.
32BB-/	.	.	.	.	.	.
32BBB-/	.	.	.	.	.	.
32BB-/	.	.	.	.	.	.
32BBB-/	(8G\	.	(8g/	.	(8ee-\	.
32BB-/	.	.	.	.	.	.
32BBB-/	.	.	.	.	.	.
32BB-/	.	.	.	.	.	.
32BBB-/	8F\	.	8a-/	.	8ff\	.
32BB-/	.	.	.	.	.	.
32BBB-/	.	.	.	.	.	.
32BB-/	.	.	.	.	.	.
32BBB-/	8En\	.	8b-/	.	8gg\	.
32BB-/	.	.	.	.	.	.
32BBB-/	.	.	.	.	.	.
32BB-/	.	.	.	.	.	.
32BBB-/	8F\	.	8a-/	.	8ff\	.
32BB-/	.	.	.	.	.	.
32BBB-/	.	.	.	.	.	.
32BB-/	.	.	.	.	.	.
32BBB-/	8G\J	.	8g/J	.	8ee-\J	.
32BB-/	.	.	.	.	.	.
32BBB-/	.	.	.	.	.	.
32BB-/JJJ	.	.	.	.	.	.
=24	=24	=24	=24	=24	=24	=24
32BBB-/LLL	8A-\L	.	8f/L	.	8dd\L	.
32BB-/	.	.	.	.	.	.
32BBB-/	.	.	.	.	.	.
32BB-/	.	.	.	.	.	.
32BBB-/	8G\	.	8g/	.	8ee-\	.
32BB-/	.	.	.	.	.	.
32BBB-/	.	.	.	.	.	.
32BB-/	.	.	.	.	.	.
32BBB-/	8F\	.	8a-/	.	8ff\	.
32BB-/	.	.	.	.	.	.
32BBB-/	.	.	.	.	.	.
32BB-/	.	.	.	.	.	.
32BBB-/	8En\	.	8b-/	.	8gg\	.
32BB-/	.	.	.	.	.	.
32BBB-/	.	.	.	.	.	.
32BB-/	.	.	.	.	.	.
32BBB-/	8F\	.	8a-/	.	8ff\	.
32BB-/	.	.	.	.	.	.
32BBB-/	.	.	.	.	.	.
32BB-/	.	.	.	.	.	.
32BBB-/	8G\J	.	8g/J	.	8ee-\J	[[
32BB-/	.	.	.	.	.	.
32BBB-/	.	.	.	.	.	.
32BB-/JJJ	.	.	.	.	.	.
=25	=25	=25	=25	=25	=25	=25
32BBB-/LLL	8A-\L)	<	8f/L)	.	8dd\L)	<
32BB-/	.	.	.	.	.	.
32BBB-/	.	.	.	.	.	.
32BB-/	.	.	.	.	.	.
32BBB-/	8G\	.	(8g/	.	(8ee-\	.
32BB-/	.	.	.	.	.	.
32BBB-/	.	.	.	.	.	.
32BB-/	.	.	.	.	.	.
32BBB-/	8F\	.	8a-/	.	8ff\	.
32BB-/	.	.	.	.	.	.
32BBB-/	.	.	.	.	.	.
32BB-/	.	.	.	.	.	.
32BBB-/	8En\	.	8b-/	.	8gg\	.
32BB-/	.	.	.	.	.	.
32BBB-/	.	.	.	.	.	.
32BB-/	.	.	.	.	.	.
32BBB-/	8F\	.	8a-/	.	8ff\	.
32BB-/	.	.	.	.	.	.
32BBB-/	.	.	.	.	.	.
32BB-/	.	.	.	.	.	.
32BBB-/	8G\J	.	8g/J	.	8ee-\J	.
32BB-/	.	.	.	.	.	.
32BBB-/	.	.	.	.	.	.
32BB-/JJJ	.	.	.	.	.	.
!!LO:LB:g=original
=26	=26	=26	=26	=26	=26	=26
*xywh-#2:593,4044,3578,1261	*xywh-#2:593,4044,3578,1261	*	*xywh-#3:172,4166,3582,943	*	*xywh-#3:172,4166,3582,943	*
32BBB-/LLL	(8A-\L	.	8f/L	.	8dd\L	.
32BB-/	.	.	.	.	.	.
32BBB-/	.	.	.	.	.	.
32BB-/	.	.	.	.	.	.
32BBB-/	8G\	.	8g/	.	8ee-\	.
32BB-/	.	.	.	.	.	.
32BBB-/	.	.	.	.	.	.
32BB-/	.	.	.	.	.	.
32BBB-/	8F\	.	8a-/	.	8ff\	.
32BB-/	.	.	.	.	.	.
32BBB-/	.	.	.	.	.	.
32BB-/	.	.	.	.	.	.
32BBB-/	8E-X\	.	8g/	.	8gg\	.
32BB-/	.	.	.	.	.	.
32BBB-/	.	.	.	.	.	.
32BB-/	.	.	.	.	.	.
32BBB-/	8D\	.	8f/	.	8aa-\	.
32BB-/	.	.	.	.	.	.
32BBB-/	.	.	.	.	.	.
32BB-/	.	.	.	.	.	.
32BBB-/	8C\J)	[[	8e-/J	.	8aan\J	[[
32BB-/	.	.	.	.	.	.
32BBB-/	.	.	.	.	.	.
32BB-/JJJ	.	.	.	.	.	.
=27	=27	=27	=27	=27	=27	=27
2.BBB-/ 2.BB-	([2.A-\ 2.d	f	8d/)	.	8bb-\)	.
.	.	.	8r	.	8r	.
.	.	.	8.g/L	.	4r	f
.	.	.	(16b-/K	.	.	.
.	.	.	8.a-/)	.	4r	.
.	.	.	(16en/Jk	.	.	.
=28	=28	=28	=28	=28	=28	=28
2.CC-X/ 2.C-X	(2.A-\_) 2.e-	.	8f/)	.	4r	.
.	.	.	8r	.	.	.
.	.	.	8.g/L	.	8.gg\L	.
.	.	.	(16b-/K	.	(16bb-\K	.
.	.	.	8.a-/)	.	8.aa-\)	.
.	.	.	(16en/Jk	.	(16een\Jk	.
=29	=29	=29	=29	=29	=29	=29
8BBB-/ 8BB-	8A-\]) 8d	.	8f/)	.	8ff\)	.
8r	8r	.	8r	.	8r	.
4r	8.Bn\L	.	8.bn\L	.	4r	.
.	(16d\K	.	(16dd\K	.	.	.
8.r	8.c\)	.	8.cc\)	.	8.r	.
*	*	*	*	*	*8va	*
(16GG/	(16G\Jk	.	(16g\Jk	.	(16ggg\	.
=30	=30	=30	=30	=30	=30	=30
8.AA-/L)	8.A-\L)	.	8.a-/L)	.	8.aaa-\L)	.
(16FF/Jk	(16F\Jk	.	(16f/Jk	.	(16fff\Jk	.
4CC/)	4C/)	.	4c/)	.	4ccc\)	.
4DD'/	4D'\	.	4d'/	.	4ddd'\	.
=31	=31	=31	=31	=31	=31	=31
4EE-/	4E-\	.	4e-'/	.	4eee-'\	.
*	*	*	*	*	*X8va	*
4EE-/ 4BB-	4E-\ 4G	f f	4r	.	4r	.
4EE-/ 4BB-	4E-\ 4G	.	4r	.	4r	.
=32	=32	=32	=32	=32	=32	=32
4EE-/ 4BB-	4E-\ 4G	.	4r	.	2.r	f
4EE-/ 4BB-	4E-\ 4G	.	[2B-^/	.	.	.
4EE-/ 4BB-	4E-\ 4G	.	.	.	.	.
!!LO:PB:g=original
=33	=33	=33	=33	=33	=33	=33
*xywh-#4:524,482,3635,957	*xywh-#4:524,482,3635,957	*	*xywh-#5:170,505,3677,869	*	*xywh-#5:170,505,3677,869	*
4EE-/	4r	.	8.B-/L]	.	2.r	.
.	.	.	(16B-/Jk	.	.	.
4BB-/	4E-\ 4G	.	[2c/)	.	.	.
4BB-/	4E-\ 4G	.	.	.	.	.
=34	=34	=34	=34	=34	=34	=34
4EE-/	4r	.	8.c/L]	.	2.r	.
.	.	.	(16c/Jk	.	.	.
4BB-/	4E-\ 4G	.	4e-/)	.	.	.
4BB-/	4E-\ 4G	.	4g'/	.	.	.
=35	=35	=35	=35	=35	=35	=35
4EE-/	4r	.	8.an/L	.	2.r	.
.	.	.	(16f/Jk	.	.	.
4AA-/	4E-\ 4F 4An	.	4a/)	.	.	.
4AA-/	4E-\ 4F 4A	.	4cc'\	.	.	.
=36	=36	=36	=36	=36	=36	=36
4EE-/	4r	.	(12b-/L	.	2.r	.
.	.	.	12g/	.	.	.
.	.	.	12f/J	.	.	.
4BB-/	4E-\ 4G 4B-	.	[2e-/)	.	.	.
4BB-/	4E-\ 4G 4B-	.	.	.	.	.
=37	=37	=37	=37	=37	=37	=37
4AAA-/ 4AA-	4r	.	8.e-/L]	.	8.r	.
.	.	.	(16g/Jk	.	(16gg\	p
4r	4E-\ 4F 4A-	p	[2Bn/)	.	[2bn\)	.
4r	4E-\ 4F 4A-	.	.	.	.	.
=38	=38	=38	=38	=38	=38	=38
4FFF/ 4FF	4r	.	8.B/L]	.	8.b\L]	.
.	.	.	(16c/Jk	.	(16cc\Jk	<
4r	4E-\ 4F 4A-	.	4e-/)	.	4ee-\)	.
4r	4E-\ 4F 4A-	.	4g'/	.	4gg'\	.
=39	=39	=39	=39	=39	=39	=39
4AAA-/ 4AA-	4r	.	8.f/L	.	8.ff\L	.
.	.	.	(16c/Jk	.	(16cc\Jk	.
4r	4E-\ 4F 4c	<	4e-/)	.	4ee-\)	.
4r	4E-\ 4F 4c	.	4g/	.	4gg\	.
!!LO:LB:g=original
=40	=40	=40	=40	=40	=40	=40
*xywh-#4:511,1400,3642,737	*xywh-#4:511,1400,3642,737	*	*	*	*	*
4BBB-/ 4BB-	4r	.	12f/L	.	12ff\L	.
.	.	.	12g/	.	12gg\	.
.	.	.	12f/J	.	12ff\J	.
4r	4A-\ 4B- 4d	.	[2b-\	.	[2bb-\	[
4r	4A-\ 4B- 4d	[[	.	.	.	.
*	*clefG2	*	*	*	*	*
=41	=41	=41	=41	=41	=41	=41
*	*	*	*xywh-#5:163,1348,3657,716	*	*xywh-#5:163,1348,3657,716	*
4EE-/	4r	f	8.b-\L]	.	8.bb-\L]	.
.	.	.	(16b-\Jk	.	(16bb-\Jk	f
4BB-/ 4E-	4G/ 4e-	.	[2cc\)	.	[2ccc\)	.
4BB-/ 4E-	4G/ 4e-	.	.	.	.	.
=42	=42	=42	=42	=42	=42	=42
4EE-/	4r	.	8.cc\L]	.	8.ccc\L]	.
.	.	.	(16cc\Jk	.	(16ccc\Jk	.
!	!	!	!	!	!LO:TX:t=P:problem=przenośnik oktawowy	!
4BB-/ 4E-	4G/ 4e-	.	4ee-\)	.	4ee-\)	.
4BB-/ 4E-	4G/ 4e-	.	4gg'\	.	4gg'\	.
=43	=43	=43	=43	=43	=43	=43
4EE-/	4r	.	8.aan'\L	.	8.aan'\L	.
.	.	.	(16ff\Jk	.	(16ff\Jk	.
4C\ 4E-	4An/ 4f	.	4aa\)	.	4aa\)	.
4C\ 4E-	4A/ 4f	.	4ccc'\	.	4ccc'\	.
=44	=44	=44	=44	=44	=44	=44
4EE-/	4r	.	(12bb-\L	.	(12bb-\L	.
.	.	.	12gg\	.	12gg\	.
.	.	.	12ff\J	.	12ff\J	.
4BB-/ 4E-	4G/ 4B- 4e- 4g	.	[2ee-\)	.	[2ee-\)	.
4BB-/ 4E-	4G/ 4B- 4e- 4g	.	.	.	.	.
=45	=45	=45	=45	=45	=45	=45
4AAA-/ 4AA-	4r	p	8.ee-\L]	.	8.ee-\L]	.
.	.	.	(16gg\Jk	.	(16gg\Jk	p
4r	4F/ 4e- 4f	.	[2bn\)	.	[2bn\)	.
4r	4F/ 4e- 4f	.	.	.	.	.
=46	=46	=46	=46	=46	=46	=46
4FFF/ 4FF	4r	.	8.b\L]	.	8.b\L]	<
.	.	.	(16cc\Jk	.	(16cc\Jk	.
4r	4A-/ 4e- 4f	<	4ee-\)	.	4ee-\)	.
4r	4A-/ 4e- 4f	[[	[4cc^\ [4ee- [4aa-	.	[4cc^\ [4ee- [4aa-	[[
!!LO:LB:g=original
=47	=47	=47	=47	=47	=47	=47
*	*	*	*^	*	*^	*
*xywh-#4:504,2098,3655,724	*xywh-#4:504,2098,3655,724	*	*xywh-#5:163,1348,3657,716	*xywh-#5:163,1348,3657,716	*xywh-#5:163,1348,3657,716	*	*xywh-#5:163,1348,3657,716	*
4BBB-/ 4BB-	4r	f	4cc\] 4ee-] 4aa-]	2ryy	.	4cc\] 4ee-] 4aa-]	2ryy	.
4r	4A-/ 4B- 4d	.	(4.b-\ 4.dd 4.gg	.	.	(4.b-\ 4.dd 4.gg	.	f
4r	4A-/ 4B- 4d	.	.	8ryy	.	.	8ryy	.
.	.	.	24ff/LL	8b-\	.	24ff/LL	8a-\ 8dd	.
.	.	.	24gg/	.	.	24gg/	.	.
.	.	.	24ff/JJ	.	.	24ff/JJ	.	.
*	*	*	*	*	*	*v	*v	*
=48	=48	=48	=48	=48	=48	=48	=48
4EE-/ 4E-	4G/ 4B- 4e-	.	8ee-/)	8b-\	.	8g\) 8ee-	.
.	.	.	8r	8ryy	.	8r	.
4EEE-/ 4EE-	4r	.	4r	4ryy	.	4r	.
!	!	!	!	!	!	!LO:TX:b:t=leggiero	!
4r	4r	.	4r	4ryy	.	(4ee-^\	.
*	*	*	*v	*v	*	*	*
=49	=49	=49	=49	=49	=49	=49
*	*	*	*xywh-#5:150,2025,3710,770	*	*xywh-#5:150,2025,3710,770	*
4GGG/ 4GG	4G/ 4d	pp	2.r	.	12dd\L	pp
.	.	.	.	.	12ee-\	.
.	.	.	.	.	12gg\J	.
4GG/ 4D	4G/ 4d	.	.	.	4bb-'\)	.
4GG/ 4D	4An/ 4d	.	.	.	(12aan\L	.
.	.	.	.	.	12gg\	.
.	.	.	.	.	12ff\J	.
=50	=50	=50	=50	=50	=50	=50
4GG/ 4D	4B-/ 4d	.	4r	.	12ee-\L	.
.	.	.	.	.	12dd\	.
.	.	.	.	.	12cc\J	.
4GG/ 4D	4G/ 4d	.	4r	.	4b-'\)	.
4GG/ 4D	4An/ 4d	.	(12cc\L	.	(12ccc\L	.
.	.	.	12dd\	.	12ddd\	.
.	.	.	12ee-\J	.	12eee-\J	.
=51	=51	=51	=51	=51	=51	=51
4GG/ 4D	4B-/ 4d	.	12dd\L	.	12ddd\L	.
.	.	.	12b-\	.	12bb-\	.
.	.	.	12an\J	.	12aan\J	.
4GG/ 4D	4An/ 4d	.	8g/L	.	8gg\L	.
.	.	.	8f#X/	.	8ff#X\	.
4GG/ 4D	4c/ 4d	.	8b-/	.	8bb-\	.
.	.	.	8a/J	.	8aa\J	.
=52	=52	=52	=52	=52	=52	=52
4GG/ 4D	4B-/ 4d	.	12g/L	.	12gg\L	.
.	.	.	12e-/	.	12ee-\	.
.	.	.	12d/J	.	12dd\J	.
4GG/ 4E-	4G/	.	[2c#X/)	.	[2cc#X\)	.
4GG/ 4E-	[4G^/	.	.	.	.	.
!!LO:LB:g=original
=53	=53	=53	=53	=53	=53	=53
*xywh-#4:496,2767,3669,757	*xywh-#4:496,2767,3669,757	*	*	*	*	*
([4GG/ 4E-	4G/_	.	(4c#/]	.	(4cc#\]	.
8GG/]) 8D	8G/L]	.	8d/L)	.	8dd\)	.
8r	(8G/	p	(8g/	.	8r	p
4r	8An/	.	8an/	.	4r	.
.	8B-/J	.	8b-/J	.	.	.
=54	=54	=54	=54	=54	=54	=54
*	*	*	*xywh-#5:167,2746,3677,710	*	*xywh-#5:167,2746,3677,710	*
2.r	4d/	.	4dd\	.	2.r	<
.	8c#X/L	.	8cc#X/L	.	.	.
.	8B-/	.	8b-/	.	.	.
.	8An/	<	8an/	.	.	.
.	8G/J	.	8g/J	.	.	.
=55	=55	=55	=55	=55	=55	=55
2.r	4d/	.	4dd\	.	2.r	[[
.	8c#X/L)	.	8cc#X/L)	.	.	.
.	(8B-/	.	(8b-/	.	.	.
.	8An/	.	8an/	.	.	.
.	8G/J	[	8g/J	.	.	.
=56	=56	=56	=56	=56	=56	=56
2.r	8.F#X/L)	>	8.f#X/L)	.	4r	>
.	(16An/Jk	.	(16an/Jk	.	.	.
.	4D/)	]	4d/)	.	4r	]
.	4D/	.	[4d^/	.	([4dd^\	.
=57	=57	=57	=57	=57	=57	=57
4GGG\ 4GG	4G/	p	4d/]	.	12dd\L]	p
.	.	.	.	.	12ee-\	.
.	.	.	.	.	12gg\J	.
4GG/ 4D	4G/ 4d	.	4r	.	4bb-'\)	.
4GG/ 4D	4An/ 4d	.	4r	.	(12aan\L	.
.	.	.	.	.	12gg\	.
.	.	.	.	.	12ff\J	.
=58	=58	=58	=58	=58	=58	=58
4GG/ 4D	4B-/ 4d	.	4r	.	12ee-\L	.
.	.	.	.	.	12dd\	.
.	.	.	.	.	12cc\J	.
4GG/ 4D	4G/ 4d	.	4r	.	4b-'\)	.
4GG/ 4D	4An/ 4d	.	(12cc\L	.	(12ccc\L	.
.	.	.	12dd\	.	12ddd\	.
.	.	.	12ee-\J	.	12eee-\J	.
!!LO:LP:g=original
=59	=59	=59	=59	=59	=59	=59
*xywh-#4:495,3491,3669,704	*xywh-#4:495,3491,3669,704	*	*xywh-#5:154,3404,3677,743	*	*xywh-#5:154,3404,3677,743	*
4GG/ 4D	4B-/ 4d	.	12dd\L	.	12ddd\L	.
.	.	.	12b-\	.	12bb-\	.
.	.	.	12an\J	.	12aan\J	.
4GG/ 4D	4An/ 4d	.	8g/L)	.	8gg\L)	.
.	.	.	(8f#X/	.	8ff#X\	.
4GG/ 4D	4c/ 4d	.	8b-/	.	8bb-\	.
.	.	.	8a/J	.	8aa\J	.
=60	=60	=60	=60	=60	=60	=60
4GG\ 4D	4B-/ 4d	.	12g/L	.	12gg\L	.
.	.	.	12e-/	.	12ee-\	.
.	.	.	12d/J	.	12dd\J	.
4GG\ 4E-	4G/	.	[2c#X/)	.	2cc#X\	.
4GG\ 4E-	[4G/	.	.	.	.	.
=61	=61	=61	=61	=61	=61	=61
([4GG\ 4E-	4G/_	.	(4c#/]	.	4cc#X\	.
8GG\]) 8D	8G/L]	.	8d/L)	.	8dd\	.
8r	(8G/	.	(8g/	.	8r	<
4r	8An/	<	8an/	.	4r	.
.	8B-/J	.	8b-/J	.	.	.
=62	=62	=62	=62	=62	=62	=62
2.r	4d/	.	4dd\	.	2.r	[[
.	8c/L)	.	8cc\L)	.	.	.
.	(8B-/	.	(8b-\	.	.	.
.	8d/	.	8dd\	.	.	.
.	8en/J	[[	8een\J	.	.	.
=63	=63	=63	=63	=63	=63	=63
2.r	4f/	.	4ff\	.	2.r	.
.	8en/L)	.	8een\L)	.	.	.
.	(8d-X/	>	(8dd-X\	.	.	.
.	8c/	.	8cc\	.	.	.
.	8B-/J	]]	8b-\J	.	.	.
!!LO:LB:g=original
=64	=64	=64	=64	=64	=64	=64
*xywh-#4:482,4156,3675,844	*xywh-#4:482,4156,3675,844	*	*xywh-#5:141,4094,3691,882	*	*xywh-#5:141,4094,3691,882	*
2.r	8.An/L)	.	8.an\L)	.	4r	>
.	(16c/Jk	.	16cc\Jk	.	.	.
.	4F/)	.	4f/	.	4r	.
.	4r	.	4r	.	([4ff^\	] f <
=65	=65	=65	=65	=65	=65	=65
4FF/ 4F	4B-/ 4e- 4g	f	2.r	.	12ff\L]	.
.	.	.	.	.	12gg\	.
.	.	.	.	.	12bb-\J	.
4FF/ 4F	4B-/ 4e- 4g	.	.	.	4ddd'\)	[
4FF/ 4F	4B-/ 4e- 4g	p	.	.	(12ccc\L	p
.	.	.	.	.	12bb-\	.
.	.	.	.	.	12gg\J	.
=66	=66	=66	=66	=66	=66	=66
4FF/ 4F	4B-/ 4e- 4g	.	4r	.	12ff\L	.
.	.	.	.	.	12ee-\	.
.	.	.	.	.	12dd\J	.
4FF/ 4F	4B-/ 4e- 4g	.	4r	.	4cc\)	.
*	*	*	*	*	*8va	*
4FF/ 4F	4B-/ 4e- 4g	.	(8ee-\L	.	(8eee-\L	.
.	.	.	8gg\J	.	8ggg\J	.
=67	=67	=67	=67	=67	=67	=67
4FF/ 4F	4B-/ 4e- 4g	.	12ff\L	.	12fff\L	.
.	.	.	12ee-\	.	12eee-\	.
.	.	.	12dd\J	.	12ddd\J	.
4FF/ 4F	4B-/ 4e- 4g	.	4cc\)	.	4ccc\)	.
4FF/ 4F	4B-/ 4e- 4g	.	(8ee-\L	.	(8eee-\L	.
.	.	.	8gg\J	.	8ggg\J	.
=68	=68	=68	=68	=68	=68	=68
4FF/ 4F	4B-/ 4e- 4f	.	12ff\L	.	12fff\L	.
.	.	.	12ee-\	.	12eee-\	.
.	.	.	12dd\J)	.	12ddd\J)	.
4FF/ 4F	4An/ 4e- 4f	.	(8cc\L	.	(8ccc\L	.
.	.	.	8ee-\J)	.	8eee-\J)	.
4FF/ 4F	4B-/ 4d 4f	.	(8dd\L	.	(8ddd\L	.
.	.	.	8b-\J)	.	8bb-\J)	.
*	*	*	*	*	*X8va	*
=69	=69	=69	=69	=69	=69	=69
4FF/ 4F	4G/ 4B- 4e-	f	(12f/L	.	2.r	f p < [[
.	.	.	12g/	.	.	.
.	.	.	12b-/J	.	.	.
4FF/ 4F	4G/ 4B- 4e-	.	4dd'\)	.	.	.
4FF/ 4F	4G/ 4B- 4e-	p	(12cc/L	.	.	.
.	.	.	12b-/	.	.	.
.	.	.	12g/J	.	.	.
!!LO:PB:g=original
=70	=70	=70	=70	=70	=70	=70
*xywh-#6:505,457,3644,899	*xywh-#6:505,457,3644,899	*	*xywh-#7:246,450,3584,963	*	*xywh-#7:246,450,3584,963	*
!	!	!	!	!	!LO:TX:b:t=dol.	!
4FF/ 4F	4G/ 4B- 4e-	.	12f/L	.	[2.gg\ [2.bb-	.
.	.	.	12e-/	.	.	.
.	.	.	12d/J	.	.	.
4FF/ 4F	4G/ 4B-	.	4c/)	.	.	.
4FF/ 4F	4G/ 4B-	.	(8e-/L	.	.	.
.	.	.	8g/J	.	.	.
=71	=71	=71	=71	=71	=71	=71
4FF/ 4F	4G/ 4B-	.	12f/L	.	2.gg\] 2.bb-_	.
.	.	.	12e-/	.	.	.
.	.	.	12d/J	.	.	.
4FF/ 4F	4G/ 4B-	.	4c/)	.	.	.
4FF/ 4F	4G/ 4B-	.	(8e-/L	.	.	.
.	.	.	8g/J	.	.	.
=72	=72	=72	=72	=72	=72	=72
4FF/ 4F	4G/ 4B-	.	12f/L	.	4gg\ 4bb-]	.
.	.	.	12e-/	.	.	.
.	.	.	12d/J	.	.	.
*	*clefF4	*	*	*	*	*
4FF/	4F\	.	8c/L	.	4ee-'\ 4aan	.
.	.	.	8e-/J)	.	.	.
4BBB-/	4BB-/	.	(8d/L	.	4dd'\ 4bb-	.
.	.	.	8B-/J)	.	.	.
=73	=73	=73	=73	=73	=73	=73
4r	4r	.	(8c/L	.	4r	.
.	.	.	8e-X/J)	.	.	.
32BBB-/LLL	4r	.	(8d/L	.	4r	.
32BB-/	.	.	.	.	.	.
32BBB-/	.	.	.	.	.	.
32BB-/	.	.	.	.	.	.
32BBB-/	.	.	8B-/J)	.	.	.
32BB-/	.	.	.	.	.	.
32BBB-/	.	.	.	.	.	.
32BB-/	.	.	.	.	.	.
32BBB-/	(8G-X\L	<	(8e-/L	.	(8cc\L	<
32BB-/	.	.	.	.	.	.
32BBB-/	.	.	.	.	.	.
32BB-/	.	.	.	.	.	.
32BBB-/	8E-\J)	[[	8g-X/J)	.	8ee-\J)	[[
32BB-/	.	.	.	.	.	.
32BBB-/	.	.	.	.	.	.
32BB-/JJJ	.	.	.	.	.	.
=74	=74	=74	=74	=74	=74	=74
*	*	*	*	*	*^	*
*	*	*	*	*	*	*xywh-#7:246,450,3584,963	*
32BBB-/LLL	(8D\L	.	(8f/L	.	(8dd\L	4ryy	.
32BB-/	.	.	.	.	.	.	.
32BBB-/	.	.	.	.	.	.	.
32BB-/	.	.	.	.	.	.	.
32BBB-/	8F\J)	.	8d/J)	.	8b-\J)	.	.
32BB-/	.	.	.	.	.	.	.
32BBB-/	.	.	.	.	.	.	.
32BB-/	.	.	.	.	.	.	.
32BBB-/	(8e-\L	.	(8cc\L	.	(8ccc/L	(4gg-X\	.
32BB-/	.	.	.	.	.	.	.
32BBB-/	.	.	.	.	.	.	.
32BB-/	.	.	.	.	.	.	.
32BBB-/	8c\J)	.	8an\J)	.	8eee-/J)	.	.
32BB-/	.	.	.	.	.	.	.
32BBB-/	.	.	.	.	.	.	.
32BB-/	.	.	.	.	.	.	.
32BBB-/	(8d\L	.	(8b-\L	.	(8ddd/L	4ff\	.
32BB-/	.	.	.	.	.	.	.
32BBB-/	.	.	.	.	.	.	.
32BB-/	.	.	.	.	.	.	.
32BBB-/	8f\J)	.	8dd\J)	.	8bb-/J)	.	.
32BB-/	.	.	.	.	.	.	.
32BBB-/	.	.	.	.	.	.	.
32BB-/JJJ	.	.	.	.	.	.	.
=75	=75	=75	=75	=75	=75	=75	=75
32BBB-/LLL	(8e-\L	.	(8cc\L	.	(8aan/L	4ee-\	.
32BB-/	.	.	.	.	.	.	.
32BBB-/	.	.	.	.	.	.	.
32BB-/	.	.	.	.	.	.	.
32BBB-/	8c\J)	.	8an\J)	.	8ccc/J)	.	.
32BB-/	.	.	.	.	.	.	.
32BBB-/	.	.	.	.	.	.	.
32BB-/	.	.	.	.	.	.	.
32BBB-/	(8c-X\L	.	(8a-X\L	.	(8ccc-X/L	4dd\	<
32BB-/	.	.	.	.	.	.	.
32BBB-/	.	.	.	.	.	.	.
32BB-/	.	.	.	.	.	.	.
32BBB-/	8d\J)	.	8cc-X\J)	.	8aa-X/J)	.	.
32BB-/	.	.	.	.	.	.	.
32BBB-/	.	.	.	.	.	.	.
32BB-/	.	.	.	.	.	.	.
32BBB-/	(8d-X\L	.	(8b-/L	.	(8gg/L	4dd-X\	.
32BB-/	.	.	.	.	.	.	.
32BBB-/	.	.	.	.	.	.	.
32BB-/	.	.	.	.	.	.	.
32BBB-/	8B-\J)	.	8g/J)	.	8bb-/J)	.	.
32BB-/	.	.	.	.	.	.	.
32BBB-/	.	.	.	.	.	.	.
32BB-/JJJ	.	.	.	.	.	.	.
!!LO:LB:g=original
=76	=76	=76	=76	=76	=76	=76	=76
*	*^	*	*	*	*	*	*
*xywh-#6:492,1323,3671,726	*xywh-#6:492,1323,3671,726	*xywh-#6:492,1323,3671,726	*	*xywh-#7:230,1366,3640,716	*	*xywh-#7:230,1366,3640,716	*xywh-#7:230,1366,3640,716	*
32BBB-/LLL	4ryy	(8An\L	<	(8f#X/L	.	(8aan/L	4cc\	.
32BB-/	.	.	.	.	.	.	.	.
32BBB-/	.	.	.	.	.	.	.	.
32BB-/	.	.	.	.	.	.	.	.
32BBB-/	.	8c\J)	.	8an/J)	.	8ff#X/J)	.	.
32BB-/	.	.	.	.	.	.	.	.
32BBB-/	.	.	.	.	.	.	.	.
32BB-/	.	.	.	.	.	.	.	.
32BBB-/	4d-X/	(8d-\L	.	(8b-/L	.	(8gg/L	4dd\)	.
32BB-/	.	.	.	.	.	.	.	.
32BBB-/	.	.	.	.	.	.	.	.
32BB-/	.	.	.	.	.	.	.	.
32BBB-/	.	8B-\J)	.	8g/J)	.	8bb-/J)	.	.
32BB-/	.	.	.	.	.	.	.	.
32BBB-/	.	.	.	.	.	.	.	.
32BB-/	.	.	.	.	.	.	.	.
32BBB-/	4B-/	(8F\L	.	(8d/L	.	(8ccn\L 8aa-X	4ryy	.
32BB-/	.	.	.	.	.	.	.	.
32BBB-/	.	.	.	.	.	.	.	.
32BB-/	.	.	.	.	.	.	.	.
32BBB-/	.	8A-X\J)	.	8fn/J)	.	8a-X\J) 8ffn	.	.
32BB-/	.	.	.	.	.	.	.	.
32BBB-/	.	.	.	.	.	.	.	.
32BB-/JJJ	.	.	.	.	.	.	.	.
*	*v	*v	*	*	*	*v	*v	*
=77	=77	=77	=77	=77	=77	=77
4EE-/	4G\ 4B-	[ f	8.e-/L	.	8.g\L 8.ee-	[
.	.	.	(16B-/Jk	.	(16b-\Jk	f
4E-\	4G\ 4B-	.	[2c/)	.	[2cc\)	.
4E-\	4G\ 4B-	.	.	.	.	.
=78	=78	=78	=78	=78	=78	=78
4EE-/	4r	.	8.c/L]	.	8.cc\L]	.
.	.	.	(16c/Jk	.	(16cc\Jk	.
4E-\	4G\ 4B-	.	4e-/)	.	4ee-\)	.
4E-\	4G\ 4B-	.	4g'/	.	4gg'\	.
=79	=79	=79	=79	=79	=79	=79
4EE-/	4r	.	8.an/L	.	8.aan\L	.
.	.	.	(16f/Jk	.	(16ff\Jk	.
4E-\	4F\ 4An 4c	.	4a/)	.	4aa\)	.
4E-\	4F\ 4A 4c	.	4cc'\	.	4ccc'\	.
=80	=80	=80	=80	=80	=80	=80
4EE-/	4r	.	(12b-/L	.	(12bb-\L	.
.	.	.	12g/	.	12gg\	.
.	.	.	12f/J	.	12ff\J	.
4E-\	4G\ 4B-	.	[2e-/)	.	[2ee-\)	.
4E-\	4G\ 4B-	.	.	.	.	.
*	*clefG2	*	*	*	*	*
=81	=81	=81	=81	=81	=81	=81
4AAA-/ 4AA-	4r	p	8.e-\L]	.	8.ee-\L]	.
.	.	.	(16gg\Jk	.	(16ggg\Jk	p
4r	4F/ 4e- 4f	.	[2bn\)	.	[2bbn\)	.
4r	4F/ 4e- 4f	.	.	.	.	.
!!LO:LB:g=original
=82	=82	=82	=82	=82	=82	=82
*xywh-#6:485,2023,3638,712	*xywh-#6:485,2023,3638,712	*	*	*	*	*
4FFF/ 4FF	4r	.	8.b\L]	.	8.bb\L]	.
.	.	.	(16cc\Jk	.	(16ccc\Jk	.
4r	4A-/ 4e- 4f	.	4ee-\)	.	4eee-\)	.
4r	4A-/ 4e- 4f	.	4gg'\	.	4ggg'\	.
=83	=83	=83	=83	=83	=83	=83
*	*	*	*xywh-#7:222,2051,3656,701	*	*xywh-#7:222,2051,3656,701	*
4AAA-/ 4AA-	4r	.	8.ff\L	.	8.fff\L	<
.	.	.	(16cc\Jk	.	16ccc\Jk	.
4r	4F/ 4e- 4f	<	4ee-\)	.	4eee-\	.
4r	4F/ 4e- 4f	.	4gg'\	.	4ggg\	.
=84	=84	=84	=84	=84	=84	=84
*	*	*	*	*	*8va	*
4BBB-/ 4BB-	4r	.	(12ff\L	.	(12fff\L	.
.	.	.	12gg\	.	12ggg\	.
.	.	.	12ff\J	.	12fff\J	.
4r	4A-/ 4d 4f	.	[2bb-\)	.	[2bbb-\)	[
4r	4A-/ 4d 4f	[[	.	.	.	.
=85	=85	=85	=85	=85	=85	=85
4EE-/	8.r	f	8.bb-\L]	.	8.bbb-\L]	.
.	(16B-/	.	(16b-\Jk	.	((16bb-\Jk 16bbb-	f
4BB-\ 4E- 4G	[2c/)	.	[2cc\)	.	[2ccc\)) [2cccc	.
4BB-\ 4E- 4G	.	.	.	.	.	.
=86	=86	=86	=86	=86	=86	=86
4EE-/	8.c/L]	.	8.cc\L]	.	8.ccc\L] 8.cccc]	.
.	(16c/Jk	.	(16cc\Jk	.	(16ccc\Jk	.
4BB-\ 4E- 4G	4e-/)	.	4ee-\)	.	4eee-\)	.
4BB-\ 4E- 4G	4g'/	.	4gg'\	.	4ggg'\	.
=87	=87	=87	=87	=87	=87	=87
4EE-/	8.an/L	.	8.aan\L	.	8.aaan\L	.
.	(16f/Jk	.	(16ff\Jk	.	(16fff\Jk	.
4C\ 4F 4An	4a/)	.	4aa\)	.	4aaa\)	.
4C\ 4F 4A	4cc'\	.	4ccc'\	.	4cccc'\	.
!!LO:LB:g=original
=88	=88	=88	=88	=88	=88	=88
*xywh-#6:472,2749,3691,706	*xywh-#6:472,2749,3691,706	*	*	*	*	*
4EE-/	(12b-/L	.	(12bb-\L	.	(12bbb-\L	.
.	12g/	.	12gg\	.	12ggg\	.
.	12f/J	.	12ff\J	.	12fff\J	.
4E-\ 4G 4B-	2e-/)	.	[2ee-\)	.	[2eee-\)	.
4E-\ 4G 4B-	.	.	.	.	.	.
=89	=89	=89	=89	=89	=89	=89
4AAA-/ 4AA-	4r	.	8.ee-\L]	.	8.eee-\L]	.
.	.	.	(16gg\Jk	.	(16ggg\Jk	.
4r	4F/ 4e- 4f	<	[2bn\)	.	[2bbn\)	<
4r	4F/ 4e- 4f	.	.	.	.	.
=90	=90	=90	=90	=90	=90	=90
4FFF/ 4FF	4r	.	8.b\L]	.	8.bb\L]	.
.	.	.	(16cc\Jk	.	(16ccc\Jk	.
4r	4c/ 4e- 4a-	[	4ee-\)	.	4eee-\)	.
4r	[4c^/ [4e- [4a-	.	[4cc^\ [4ee- [4aa-	.	[4ccc^\ [4eee- [4aaa-	[
=91	=91	=91	=91	=91	=91	=91
*	*	*	*^	*	*^	*
*	*	*	*xywh-#7:214,2712,3648,724	*xywh-#7:214,2712,3648,724	*	*xywh-#7:214,2712,3648,724	*xywh-#7:214,2712,3648,724	*
4BBB-/ 4BB-	4c/] 4e-] 4a-]	.	4cc\] 4ee-] 4aa-]	2ryy	.	4ccc\] 4eee-] 4aaa-]	2ryy	.
4BB-/	4B-/ 4d	f	4.b-\ 4.dd 4.gg	.	.	4.bb-\ 4.ddd 4.ggg	.	f
4BBB-/	4A-/ 4B- 4d	.	.	8ryy	.	.	8ryy	.
.	.	.	24ff/LL	8b-\	.	24fff/LL	8aa-\ 8ddd	.
.	.	.	24gg/	.	.	24ggg/	.	.
.	.	.	24ff/JJ	.	.	24fff/JJ	.	.
*	*	*	*v	*v	*	*	*	*
*	*	*	*	*	*v	*v	*
=92	=92	=92	=92	=92	=92	=92
4EE-/ 4E-	4G/ 4B- 4e-	.	4b-\ 4ee-	.	4gg\ 4eee-	.
*	*	*	*	*	*X8va	*
4EEE-/ 4EE-	4r	.	4r	.	4r	.
4r	4r	.	([4b-^\	.	4r	f
*	*clefF4	*	*	*	*	*
=93	=93	=93	=93	=93	=93	=93
4EE-/ 4E-	4F\ 4A- 4c	f	12b-\L]	.	4r	<
.	.	.	12cc\	.	.	.
.	.	.	12ee-\J	.	.	.
4EE-/ 4E-	4F\ 4A- 4c	.	4gg\)	.	4r	.
4EE-/ 4E-	4F\ 4A- 4c	.	(12ff\L	.	(12fff\L	[
.	.	.	12ee-\	.	12eee-\	.
.	.	.	12cc\J	.	12ccc\J	.
=94	=94	=94	=94	=94	=94	=94
4EE-/ 4E-	4F\ 4A- 4c	.	12b-/L	.	12bb-\L	.
.	.	.	12a-/	.	12aa-\	.
.	.	.	12g/J	.	12gg\J	.
4EE-/ 4E-	4F\ 4A- 4c	.	4f/)	.	4ff\)	.
4EE-/ 4E-	4F\ 4A- 4c	.	(8a-\L	.	(8aa-\L	.
.	.	.	8cc\J	.	8ccc\J	.
!!LO:LB:g=original
=95	=95	=95	=95	=95	=95	=95
*xywh-#6:472,3422,3664,653	*xywh-#6:472,3422,3664,653	*	*	*	*	*
4EE-/ 4E-	4F\ 4A- 4c	.	12b-/L	.	12bb-\L	.
.	.	.	12a-/	.	12aa-\	.
.	.	.	12g/J	.	12gg\J	.
4EE-/ 4E-	4F\ 4A- 4c	.	4f/)	.	4ff\)	.
4EE-/ 4E-	4F\ 4A- 4c	.	(8a-\L	.	(8aa-\L	.
.	.	.	8cc\J)	.	8ccc\J)	.
=96	=96	=96	=96	=96	=96	=96
4EE-/ 4E-	4F\ 4A- 4c	.	(8b-/L	.	(8bb-\L	.
.	.	.	8g/)	.	8gg\)	.
4EE-/ 4E-	4A-\ 4B- 4d	.	(8f/	.	(8ff\	.
.	.	.	8a-/J)	.	8aa-\J)	.
4EE-/ 4E-	4G\ 4B- 4e-	.	8g/	.	8gg\	.
.	.	.	8r	.	8r	.
*	*clefG2	*	*	*	*	*
=97	=97	=97	=97	=97	=97	=97
*	*	*	*xywh-#7:190,3401,3720,708	*	*xywh-#7:190,3401,3720,708	*
4EE-/ 4E-	4A-/ 4c 4f	.	2.r	.	(12ee-\L	<
.	.	.	.	.	12ff\	.
.	.	.	.	.	12aa-\J	.
4EE-/ 4E-	4A-/ 4c 4f	.	.	.	4ccc\)	.
4EE-/ 4E-	4A-/ 4c 4f	.	.	.	(12bb-\L	[
.	.	.	.	.	12aa-\	.
.	.	.	.	.	12gg\J	.
=98	=98	=98	=98	=98	=98	=98
4EE-/ 4E-	4A-/ 4c 4f	.	4r	.	12ff\L	.
.	.	.	.	.	12ee-\	.
.	.	.	.	.	12dd\J	.
4EE-/ 4E-	4A-/ 4c 4f	.	4r	.	4cc\)	.
4EE-/ 4E-	4A-/ 4c 4f	.	(8ee-\L	.	(8eee-\L	.
.	.	.	8gg\J	.	8ggg\J	.
=99	=99	=99	=99	=99	=99	=99
4EE-/ 4E-	4A-/ 4c 4f	.	12ff\L	.	12fff\L	.
.	.	.	12ee-\	.	12eee-\	.
.	.	.	12dd\J	.	12ddd\J	.
4EE-/ 4E-	4A-/ 4c 4f	.	4cc\)	.	4ccc\)	.
4EE-/ 4E-	4A-/ 4c 4f	.	(8ee-\L	.	(8eee-\L	.
.	.	.	8gg\J	.	8ggg\J	.
=100	=100	=100	=100	=100	=100	=100
4EE-/ 4E-	4A-/ 4c 4f	.	8ff\)	.	8fff\)	.
.	.	.	8r	.	8r	.
4EE-/ 4E-	4A-/ 4B- 4d	.	(8g/L	.	(8gg\L	.
.	.	.	8b-/)	.	8bb-\)	.
4EE-/ 4E-	4A-/ 4B- 4d	.	(8a-/	.	(8aa-\	.
.	.	.	8f/J)	.	8ff\J)	.
=101	=101	=101	=101	=101	=101	=101
8EE-/ 8E-	8G/ 8B- 8e-	.	4r	.	8ee-\	.
8r	8r	.	.	.	8r	.
*	*clefF4	*	*	*	*	*
4r	(8E-\L	>	(8e-/L	.	4r	f >
.	8G\	.	8g/	.	.	.
4r	8An\	.	8an/	.	4r	]]
.	8c\J	]]	8cc/J	.	.	.
!!LO:LB:g=original
=102	=102	=102	=102	=102	=102	=102
*xywh-#6:459,4042,3704,899	*xywh-#6:459,4042,3704,899	*	*	*	*	*
((2.EE-/ 2.E-	2.G\) 2.e-	p	8b-\)	.	4r	.
.	.	.	8r	.	.	.
.	.	.	(8g\L	.	(8gg\L	p
.	.	.	8b-\	.	8bb-\	.
.	.	.	8dd\	.	8ddd\	.
.	.	.	8ff\J	.	8fff\J	.
=103	=103	=103	=103	=103	=103	=103
*	*	*	*xywh-#7:182,4080,3712,940	*	*xywh-#7:182,4080,3712,940	*
2.FF/)) 2.F	4A-\ 4e-	.	8ee-\)	.	8eee-\)	.
.	.	.	8r	.	8r	.
.	(8F\L	f	(8f\L	.	4r	f
.	8A-\	.	8a-\	.	.	.
.	8c\	.	8cc\	.	4r	.
.	8e-\J)	.	8ee-\J	.	.	.
=104	=104	=104	=104	=104	=104	=104
((2.BB-\ 2.F	(2.A-\ [2.d-X	p	8dd-X\)	.	4r	.
.	.	.	8r	.	.	.
.	.	.	(8b-\L	.	(8bb-\L	p
.	.	.	8dd-\	.	8ddd-X\	.
.	.	.	8ff\	.	8fff\	.
.	.	.	8aa-\J	.	8aaa-\J	.
=105	=105	=105	=105	=105	=105	=105
2.EE-/)) 2.E-	8G\) 8d-]	.	8gg\)	.	8ggg\)	.
.	8r	.	8r	.	8r	.
.	(8E-\L	f	(8e-/L	.	4r	f
.	8G\	.	8g/	.	.	.
.	8B-\	.	8b-/	.	4r	.
.	8c\J	.	8dd-X/J	.	.	.
=106	=106	=106	=106	=106	=106	=106
((2.AA-/ 2.E-	(2.G\) [2.c	.	8cc\)	.	4r	.
.	.	.	8r	.	.	.
.	.	.	(8a-\L	.	(8aa-\L	p
.	.	.	8cc\	.	8ccc\	.
.	.	.	8ee-\	.	8eee-\	.
.	.	.	8gg\J	.	8ggg\J	.
=107	=107	=107	=107	=107	=107	=107
(2.DD-X/)) 2.D-X	((2.F\) 2.c]	.	8ff\)	.	8fff\)	.
.	.	.	8r	.	8r	.
.	.	.	(8f\L	.	(8ff\L	.
.	.	.	8a-\	.	8aa-\	.
.	.	.	8cc\	.	8ccc\	.
.	.	.	8ee-\J	.	8eee-\J	.
=108	=108	=108	=108	=108	=108	=108
8EE-/) 8E-	8G\)) 8B-	.	8dd-X\)	.	8ddd-X\)	.
16r	16r	.	16r	.	8r	.
16CC/	16C/	.	16c/	.	.	.
(8qEE-/	(8qE-/	.	(8qe-/	.	.	.
4DD-X/)	4D-X\)	.	4d-X/)	.	4r	.
4BBB-'/	4BB-'/	.	4B-'/	.	4r	.
!!pagebreak:original
=109||	=109||	=109||	=109||	=109||	=109||	=109||
*xywh-#8:496,457,3686,903	*xywh-#8:496,457,3686,903	*	*xywh-#9:142,444,3657,889	*	*xywh-#9:142,444,3657,889	*
*k[b-e-a-d-]	*k[b-e-a-d-]	*	*k[b-e-a-d-]	*	*k[b-e-a-d-]	*
8AAA-/	8AA-/	p	8A-/	.	2.r	.
8r	8r	.	8r	.	.	.
4AAA-/ 4AA-	4E-\ 4A- 4c	.	4r	.	.	.
4AAA-/ 4AA-	4E-\ 4A- 4c	.	4r	.	.	.
=110	=110	=110	=110	=110	=110	=110
!	!	!	!	!	!LO:TX:b:t=1	!
4AAA-/ 4AA-	4E-\ 4A- 4c	.	2.r	.	2.r	.
4AAA-/ 4AA-	4E-\ 4A- 4c	.	.	.	.	.
4AAA-/ 4AA-	4E-\ 4A- 4c	.	.	.	.	.
=111	=111	=111	=111	=111	=111	=111
4AAA-/ 4AA-	4r	.	2.r	.	4r	.
!	!	!	!	!	!LO:TX:b:t=espr.	!
4r	4E-\ 4A- 4c	.	.	.	[2a-^/	p
4r	4E-\ 4A- 4c	.	.	.	.	.
=112	=112	=112	=112	=112	=112	=112
4BBB-/ 4BB-	4r	.	2.r	.	8a-/]	.
.	.	.	.	.	8r	.
4r	4E-\ 4G 4d-	.	.	.	[2g^/	.
4r	4E-\ 4G 4d-	.	.	.	.	.
=113	=113	=113	=113	=113	=113	=113
4BBBn/ 4BBn	4r	.	2.r	.	8g/]	.
.	.	.	.	.	8r	.
4r	4F\ 4A- 4dn	.	.	.	([2f/	.
4r	4F\ 4A- 4d	.	.	.	.	.
=114	=114	=114	=114	=114	=114	=114
4CC/ 4C	4r	.	2.r	.	8f/L]	.
.	.	.	.	.	8g/J	.
4r	4E-\ 4A-	.	.	.	([2e-/)	.
4r	4E-\ 4A-	.	.	.	.	.
=115	=115	=115	=115	=115	=115	=115
4DD-/ 4D-	4r	.	2.r	.	8e-/L]	.
.	.	.	.	.	8f/J)	.
4r	4F\ 4A- 4B-	.	.	.	(4.d-/	.
4r	4F\ 4A- 4B-	.	.	.	.	.
.	.	.	.	.	8c/	.
=116	=116	=116	=116	=116	=116	=116
*xywh-#8:537,1317,3646,639	*xywh-#8:537,1317,3646,639	*	*xywh-#9:129,1321,3691,677	*	*xywh-#9:129,1321,3691,677	*
4BBB-/ 4BB-	4r	.	2.r	.	2B-/)	.
4r	4F\ 4A-	.	.	.	.	.
4r	4F\ 4A-	.	.	.	(8c/L	.
.	.	.	.	.	8d-/J	.
=117	=117	=117	=117	=117	=117	=117
4BBB-/ 4BB-	4r	.	2.r	.	8en/L	.
.	.	.	.	.	8g/J	.
4r	4F\ 4A- 4d-	.	.	.	4f/)	.
4r	4F\ 4A-	.	.	.	(8d-/L	.
.	.	.	.	.	8c/J	.
=118	=118	=118	=118	=118	=118	=118
4EE-/	4r	.	2.r	.	2B-/)	.
4r	4E-\ 4G 4d-	.	.	.	.	.
4r	4E-\ 4G 4d-	.	.	.	[4e-/	.
=119	=119	=119	=119	=119	=119	=119
4AAA-/ 4AA-	4r	.	2.r	.	8e-/]	.
.	.	.	.	.	8r	.
4r	4E-\ 4A- 4c	.	.	.	[2a-/	.
4r	4E-\ 4A- 4c	.	.	.	.	.
=120	=120	=120	=120	=120	=120	=120
4BBB-/ 4BB-	4r	.	2.r	.	(8a-/L]	.
.	.	.	.	.	8g/J	.
4r	4E-\ 4G 4d-	.	.	.	[2b-\)	.
4r	4E-\ 4G 4d-	<	.	.	.	.
=121	=121	=121	=121	=121	=121	=121
4BBBn/ 4BBn	4r	.	2.r	.	4b-\]	<
4r	4F\ 4A- 4dn	.	.	.	(4.a-/	.
4r	4F\ 4A- 4d	[[	.	.	.	.
.	.	.	.	.	8f/	.
=122	=122	=122	=122	=122	=122	=122
*	*	*	*xywh-#9:142,1985,3677,703	*	*xywh-#9:142,1985,3677,703	*
4CC/ 4C	4r	.	2.r	.	[2.e-/	[[
4r	4E-\ 4A-	.	.	.	.	.
4r	4E-\ 4A-	.	.	.	.	.
=123	=123	=123	=123	=123	=123	=123
*xywh-#8:521,1925,3638,735	*xywh-#8:521,1925,3638,735	*	*	*	*	*
4FF/	4r	.	2.r	.	8e-/L]	.
.	.	.	.	.	8f/J)	.
4C/	4F\ 4A-	.	.	.	4c/	p
4C/	4F\ 4A-	.	.	.	4dn'/	.
=124	=124	=124	=124	=124	=124	=124
4CC/	4r	.	2.r	.	(8e-/L	.
.	.	.	.	.	8f/J	.
4r	4E-\ 4G 4c	.	.	.	4g'/)	.
.	.	.	.	.	(8qb-/	.
4FFF/ 4FF	4E-\ 4A- 4c	.	.	.	4a-'/)	.
=125	=125	=125	=125	=125	=125	=125
4BBB-/ 4BB-	4r	.	2.r	.	(8g/L	>
.	.	.	.	.	8f/J	.
4r	4E-\ 4F 4A-	>	.	.	4c/)	.
4BBB-/ 4BB-	4Dn\ 4F 4A-	]]	.	.	4dn/	]]
=126	=126	=126	=126	=126	=126	=126
*	*^	*	*	*	*	*
*	*	*xywh-#8:521,1925,3638,735	*	*	*	*	*
4EE-/ 4BB-	4E-\ 4G	4ryy	<	4r	.	4e-/	.
2EE-/ 2E-	2d-X^/	(8An\L	.	[2e-/	.	4r	.
.	.	8c\	[ >	.	.	.	.
.	.	8B-\	.	.	.	4r	.
.	.	8G\J)	.	.	.	.	.
*	*v	*v	*	*	*	*	*
!!linebreak:original
*	*clefG2	*	*	*	*	*
=127	=127	=127	=127	=127	=127	=127
*^	*	*	*	*	*	*
*	*xywh-#8:521,1925,3638,735	*	*	*	*	*	*
4r	4AAA-\ 4AA-	(2.c/	]	8e-/]	.	4r	.
.	.	.	.	8r	.	.	.
4E-/ 4A-	4r	.	.	[2a-/	.	[2aa-\	p
4E-/ 4A-	4r	.	.	.	.	.	.
=128	=128	=128	=128	=128	=128	=128	=128
4r	4BBB-\ 4BB-	(2.d-/)	.	8a-/]	.	8aa-\]	.
.	.	.	.	8r	.	8r	.
4E-/ 4G	4r	.	.	[2g/	.	[2gg\	.
4E-/ 4G	4r	.	.	.	.	.	.
=129	=129	=129	=129	=129	=129	=129	=129
*xywh-#8:513,2628,3638,719	*xywh-#8:513,2628,3638,719	*xywh-#8:513,2628,3638,719	*	*xywh-#9:122,2662,3657,690	*	*xywh-#9:122,2662,3657,690	*
4r	4BBBn\ 4BBn	(2.dn/)	.	8g/]	.	8gg\]	.
.	.	.	.	8r	.	8r	.
4F/ 4A-	4r	.	.	([2f/	.	([2ff\	.
4F/ 4A-	4r	.	.	.	.	.	.
=130	=130	=130	=130	=130	=130	=130	=130
4r	4CC\ 4C	[2.e-/)	.	8f/L]	.	8ff\L]	.
.	.	.	.	8g/J)	.	8gg\J)	.
4E-/ 4A-	4r	.	.	4r	.	([2ee-\	.
4E-/ 4A-	4r	.	.	4r	.	.	.
*v	*v	*	*	*	*	*	*
=131	=131	=131	=131	=131	=131	=131
4DD-/ 4D-	8e-/L]	.	(2.B-/	.	8ee-\L]	.
.	8f/J	.	.	.	8ff\J)	.
4BB-\ 4F 4A-	(4.d-/	.	.	.	(4.dd-\	.
4BB-\ 4F 4A-	.	.	.	.	.	.
.	8c/	.	.	.	8cc\	.
=132	=132	=132	=132	=132	=132	=132
4DD-/ 4D-	2B-/)	.	[2.a-/)	.	2b-\)	.
4BB-\ 4F 4A-	.	.	.	.	.	.
4BB-\ 4F 4A-	(8c/L	<	.	.	(8cc\L	<
.	8d-/J	.	.	.	8dd-\J	.
=133	=133	=133	=133	=133	=133	=133
4BBB-/ 4BB-	8en/L	.	(2.a-/]	.	8een\L	.
.	8g/J	.	.	.	8gg\J	.
4BB-\ 4F 4A-	4f/)	.	.	.	4ff\)	[
4BB-\ 4F 4A-	(8d-/L	[	.	.	(8dd-\L	.
.	8c/J	.	.	.	8cc\J	.
=134	=134	=134	=134	=134	=134	=134
4EE-/ 4E-	2B-/)	.	4g/)	.	2b-\)	>
4E-\ 4G	.	.	4r	.	.	.
4E-\ 4G	(4d-/	.	[4e-/	.	[4ee-\	]
=135	=135	=135	=135	=135	=135	=135
*xywh-#8:521,3323,3630,751	*xywh-#8:521,3323,3630,751	*	*xywh-#9:150,3357,3684,703	*	*xywh-#9:150,3357,3684,703	*
4AAA-/ 4AA-	(2.c/)	.	8e-/]	.	8ee-\]	.
!	!	!	!	!	!LO:TX:b:t=espr.	!
.	.	.	8r	.	8r	.
4E-\ 4A-	.	.	([2a-/	.	([2aa-\	.
4E-\ 4A-	.	.	.	.	.	.
=136	=136	=136	=136	=136	=136	=136
4BBB-/ 4BB-	(2.d-/)	<	8a-/L]	.	8aa-\L]	.
.	.	.	8g/J)	.	8gg\J)	.
4E-\ 4G	.	.	[2b-\	.	[2bb-\	<
4E-\ 4G	.	.	.	.	.	.
=137	=137	=137	=137	=137	=137	=137
4BBBn/ 4BBn	(2.en/)	.	8b-\]	.	8bb-\]	.
.	.	.	8r	.	8r	.
4F\ 4A-	.	.	(4.a-/	.	(4.aa-\	.
4F\ 4A-	.	.	.	.	.	.
.	.	.	8f/	.	8ff\	[[
=138	=138	=138	=138	=138	=138	=138
4CC/ 4C	2.e-/)	[[	2e-/)	.	2ee-\)	.
4E-\ 4A-	.	.	.	.	.	.
4E-\ 4A-	.	.	([4ee-^\	.	([4eee-\	f > ]]
=139	=139	=139	=139	=139	=139	=139
*	*^	*	*	*	*	*
*	*	*xywh-#8:521,3323,3630,751	*	*	*	*	*
4BBB-/	[2.f/	4r	f	8ee-\L]	.	8eee-\L]	.
.	.	.	.	8dd-\	.	8ddd-\	.
4BB-/	.	4F\ 4G 4d-	.	8cc\	.	8ccc\	.
.	.	.	.	8dd-\J)	.	8ddd-\	.
4BB-/	.	4F\ 4G 4d-	.	8r	.	8ff\	.
.	.	.	.	(8g/	.	8gg\J	.
=140	=140	=140	=140	=140	=140	=140	=140
4FF/	2.f/_	4r	.	8a-/L	.	8aa-\L	.
.	.	.	.	8b-/J	.	8bb-\J	.
4F\	.	4A-\ 4c	.	[2cc\)	.	[2ccc\)	.
4F\	.	4A-\ 4c	.	.	.	.	.
=141	=141	=141	=141	=141	=141	=141	=141
*xywh-#8:505,4067,3654,847	*xywh-#8:505,4067,3654,847	*xywh-#8:505,4067,3654,847	*	*xywh-#9:124,4047,3704,889	*	*xywh-#9:124,4047,3704,889	*
4DD-/	2f/]	4r	.	8.cc/L]	.	8.ccc\L]	.
.	.	.	.	(16f/Jk	.	(16ff\Jk	.
4D-\	.	4F\ 4c	>	4a-/	.	4aa-\	>
4D-\	4ryy	(4F\ 4G 4Bn	.	8g/L	.	8gg\L	.
.	.	.	.	8f/J	.	8ff\J	.
*	*v	*v	*	*	*	*	*
=142	=142	=142	=142	=142	=142	=142
4CC/	4En/) 4G 4c	.	4en/)	.	8.een\L)	.
.	.	.	.	.	(16gg\Jk	.
4C/	4r	]	4r	.	4cc\)	]
4r	4G/ 4g	p	4r	.	4r	.
=143	=143	=143	=143	=143	=143	=143
*	*^	*	*	*	*	*
*	*	*xywh-#8:505,4067,3654,847	*	*	*	*	*
4CC/ 4GG 4C	[2.g/	2G\	.	8.r	.	4r	.
.	.	.	.	(32gg\LLL	.	.	.
.	.	.	.	32aan\JJJ	.	.	.
!	!	!	!	!	!	!LO:TX:b:t=dolce	!
4CC/ 4GG 4C	.	.	.	[2gg\	.	(8dddn\L	p
.	.	.	.	.	.	8ggg\	.
4CC/ 4GG 4C	.	(8An\L	.	.	.	8eeen\	.
.	.	8Bn\J	.	.	.	8ddd\J	.
!!pagebreak:original
=144	=144	=144	=144	=144	=144	=144	=144
4CC/ 4GG 4C	2.g/]	8.G\L)	.	8.gg\L])	.	2eeen\	.
.	.	(16c\Jk	.	(32gg\LL	.	.	.
.	.	.	.	32aan\JJJ	.	.	.
4CC/ 4GG 4C	.	4dn\)	.	[2gg\)	.	.	.
4CC/ 4GG 4C	.	4en\	.	.	.	8ccc\L	.
.	.	.	.	.	.	8aan\J	.
=145	=145	=145	=145	=145	=145	=145	=145
4CC/ 4GG 4C	[2.g/	(8g\L	.	8gg\]	.	8.gg\L)	.
.	.	8f#X\J	.	8r	.	.	.
.	.	.	.	.	.	(16gg\Jk	.
!	!	!	!	!	!	!LO:TX:b:t=legg.	!
4CC/ 4GG 4C	.	4dn\)	.	4an'/	.	4ff#X'\) 4aan	.
4CC/ 4GG 4C	.	(8d\L	.	4bn'\	.	4ffn'\ 4bbn	.
.	.	8fn\J	.	.	.	.	.
*	*v	*v	*	*	*	*	*
=146	=146	=146	=146	=146	=146	=146
4CC/ 4GG 4C	8.en/L) 8.g]	.	4cc'\	.	(4.een\ 4.ccc	.
.	16Bn/Jk 16bn	.	.	.	.	.
4CC/ 4GG 4C	4c'/ 4cc	.	4r	.	.	.
.	.	.	.	.	8dddn\L	.
4CC/ 4GG 4C	4An'/ 4an	.	4r	.	8eeen\	.
.	.	.	.	.	8fff\J)	.
!!pagebreak:original
=147	=147	=147	=147	=147	=147	=147
*	*^	*	*	*	*	*
*xywh-#10:520,520,3678,932	*xywh-#10:520,520,3678,932	*xywh-#10:520,520,3678,932	*	*xywh-#11:93,449,3737,894	*	*xywh-#11:93,449,3737,894	*
!	!	!	!	!	!	!LO:TX:b:t=dolce	!
4CC/ 4GG 4C	[2.g/	2G\	.	4r	.	2.gggt\	.
4CC/ 4GG 4C	.	.	.	(8ddn\L	.	.	.
.	.	.	.	8ffn\	.	.	.
4CC/ 4GG 4C	.	(8An\L	.	8een\	.	.	.
.	.	8Bn\J	.	8dd\J	.	.	.
=148	=148	=148	=148	=148	=148	=148	=148
4CC/ 4GG 4C	2.g/]	8.G\L)	.	2een\	.	2.ggg\	<[
.	.	(16c\Jk	.	.	.	.	.
4CC/ 4GG 4C	.	4dn\)	.	.	.	.	.
4CC/ 4GG 4C	.	4en\	.	8cc\L	.	.	.
.	.	.	.	8an\J	.	.	.
=149	=149	=149	=149	=149	=149	=149	=149
!	!	!	!	!LO:TX:a:t=legg.	!	!	!
4CC/ 4GG 4C	[2.g/	(8g\L	.	8.gg\L)	.	2.ggg\	.
.	.	8f#X\J	.	.	.	.	.
.	.	.	.	(16gg\Jk	.	.	.
4CC/ 4GG 4C	.	4dn\)	.	4ff#X\) 4aan	.	.	.
4CC/ 4GG 4C	.	(8d\L	.	4ffn'\ 4bbn	.	.	.
.	.	8fn\J	.	.	.	.	.
*	*v	*v	*	*	*	*	*
=150	=150	=150	=150	=150	=150	=150
4CC/ 4GG 4C	8.en/L) 8.g]	<	8.een\L 8.ccc	.	8.ggg\L	.
.	(16c/Jk	.	(16cc\Jk	.	(16ccc\Jk	.
4CC/ 4GG 4C	4e/)	.	4ee\)	.	4eeen\)	.
4CC/ 4GG 4C	4g'/	[[	4gg'\	.	4ggg'\	.
=151	=151	=151	=151	=151	=151	=151
*^	*^	*	*	*	*	*
*	*xywh-#10:520,520,3678,932	*	*xywh-#10:520,520,3678,932	*	*	*	*	*
!	!	!	!	!	!	!	!LO:TX:t=P:problem=przenośnik oktawowy	!
4CC/	2.CC\	[2.cc/	2c\	f	8ccc\	.	(16ccc\LL	f
.	.	.	.	.	.	.	16cc\	.
.	.	.	.	.	8r	.	16ccc\	.
.	.	.	.	.	.	.	16cc\JJ	.
4GG/ 4C	.	.	.	.	(8ddn\L	.	4bbn\)	.
.	.	.	.	.	8een\	.	.	.
4GG/ 4C	.	.	(8dn\L	.	8ff\	.	4bb-X'\	.
.	.	.	8en\J	.	8gg\J	.	.	.
=152	=152	=152	=152	=152	=152	=152	=152	=152
4CC/	2.CC\	8.cc/L]	[2.c\)	.	2aan\	.	8.aan\L	.
.	.	(16cc/Jk	.	.	.	.	(16aa\Jk	.
!	!	!LO:TX:a:t=marc.	!	!	!	!	!	!
4AAn/ 4C	.	4bn/)	.	.	.	.	4ddn\)	.
4AA/ 4C	.	4an/	.	.	8ff\L	.	[4ff^\	.
.	.	.	.	.	8ddn\J	.	.	.
=153	=153	=153	=153	=153	=153	=153	=153	=153
*xywh-#10:507,1426,3678,766	*xywh-#10:507,1426,3678,766	*xywh-#10:507,1426,3678,766	*xywh-#10:507,1426,3678,766	*	*xywh-#11:111,1331,3678,691	*	*xywh-#11:111,1331,3678,691	*
!	!	!	!	!	!	!	!LO:TX:t=P:problem=przenośnik oktawowy	!
4CC/	2.CC\	[2.g/	8.c\L]	.	[2.gg\)	.	8.ff\L]	.
.	.	.	(16Bn\Jk	.	.	.	(16ff\Jk	.
4GG/ 4Dn	.	.	4dn\)	.	.	.	4bn\)	.
4GG/ 4D	.	.	4f'\	.	.	.	4b'\ 4ddn	.
*	*	*v	*v	*	*	*	*	*
=154	=154	=154	=154	=154	=154	=154	=154
4CC/	2.CC\	8.en/L 8.g]	.	8.gg\L]	.	8.cc\L 8.een	.
.	.	(16c/Jk	.	(16cc\Jk	.	(16cc\Jk	.
4GG/ 4En	.	4f/)	.	4een\)	.	4ee\)	.
4GG/ 4E	.	4g'/	.	4gg'\	.	4gg'\	.
=155	=155	=155	=155	=155	=155	=155	=155
*	*	*^	*	*	*	*	*
*	*	*	*xywh-#10:507,1426,3678,766	*	*	*	*	*
4CC/	2.CC\	[2.cc/	2c\	<	8ccc\	.	(16ccc\LL	<
.	.	.	.	.	.	.	16cc\	.
.	.	.	.	.	8r	.	16ccc\	.
.	.	.	.	.	.	.	16cc\JJ	.
4GG/ 4C	.	.	.	.	(8ddn\L	.	4bbn'\)	.
.	.	.	.	.	8een\	.	.	.
4GG/ 4C	.	.	(8dn\L	.	8ff\	.	4bb-X'\	.
.	.	.	8en\J	.	8gg\J	.	.	.
=156	=156	=156	=156	=156	=156	=156	=156	=156
4CC/	2.CC\	8.cc/L]	[2.c\)	.	2aan\	.	8.aan\L	.
.	.	(16cc/Jk	.	.	.	.	(16aa\Jk	.
4AAn/ 4C	.	4bn/)	.	.	.	.	4ddn\)	.
4AA/ 4C	.	4an'/	.	.	8ff\L	.	[4ff\	.
.	.	.	.	.	8ddn\J	.	.	.
=157	=157	=157	=157	=157	=157	=157	=157	=157
4CC/	2.CC\	[2.g/	8.c\L]	.	[2.gg\)	.	8.ff\L]	.
.	.	.	(16Bn\Jk	.	.	.	(16ff\Jk	.
4GG/ 4Dn	.	.	4dn\)	.	.	.	4bn\)	.
4GG/ 4D	.	.	4f'\	.	.	.	4b\ 4ddn	.
!!linebreak:original
=158	=158	=158	=158	=158	=158	=158	=158	=158
4CC/	2.CC\	2.g/_	8.en\L	.	4gg\]	.	4cc\ 4een	.
.	.	.	16Bn\Jk	.	.	.	.	.
4GG/ 4En	.	.	[2c\	.	8r	.	8r	.
.	.	.	.	.	8bn'\L 8ddn	.	8bn'\L 8ddn	.
4GG/ 4E	.	.	.	.	8cc'\ 8een	.	8cc'\ 8ee	.
.	.	.	.	.	8dd'\J 8ff	.	8dd'\J 8ff	[[
*v	*v	*	*	*	*	*	*	*
*	*v	*v	*	*	*	*	*
=159	=159	=159	=159	=159	=159	=159
*xywh-#10:500,2166,3678,726	*xywh-#10:500,2166,3678,726	*	*xywh-#11:182,2011,3594,697	*	*xywh-#11:182,2011,3594,697	*
*	*	*	*	*	*8va	*
2.CC/ 2.GG 2.C	8.c/L] 8.g]	[ ff	4een\ 4gg	.	4eeen\ 4ggg	ff
.	(16G/Jk	.	.	.	.	.
.	[2c/)	.	8r	.	8r	.
.	.	.	8bn'\L 8ddn	.	8bbn'\L 8dddn	.
.	.	.	8cc'\ 8ee	.	8ccc'\ 8eee	.
.	.	.	8dd'\J 8ff	.	8ddd'\J 8fff	.
=160	=160	=160	=160	=160	=160	=160
2.CC/ 2.GG 2.C	8.c/L]	.	4een'\ 4gg	.	4eeen'\ 4ggg	.
.	16G/Jk	>	.	.	.	.
*	*	*	*	*	*X8va	*
.	[2c/	.	8r	.	8r	.
.	.	.	8bn'\L	.	8ddn'\L	>
.	.	.	8cc'\	.	8ee'\	.
.	.	.	8ddn'\J	.	8ff'\J	]]
=161	=161	=161	=161	=161	=161	=161
2.CC/ 2.GG 2.C	8.c/L]	.	4een'\	.	4gg'\	.
.	16G/Jk	.	.	.	.	.
.	[2c/	.	8r	.	8r	.
.	.	.	8bn'\L	.	8ddn'\L	p
.	.	.	8cc'\	.	8een'\	.
.	.	.	8ddn'\J	.	8ff'\J	.
=162	=162	=162	=162	=162	=162	=162
2.CC/ 2.GG 2.C	8.c/L]	.	4een'\	.	4gg'\	.
.	16G/Jk	.	.	.	.	.
.	[2c/	]]	8r	.	4r	.
.	.	.	8dn'/	.	.	.
!	!	!	!	!	!LO:TX:b:t=legg.	!
.	.	.	8en'/L	.	4r	.
.	.	.	8d'/J 8f	.	.	.
=163	=163	=163	=163	=163	=163	=163
!	!LO:TX:b:t=legg.	!	!	!	!	!
4CC/ 4GG 4C	(2.c/]	p	8.en/L 8.g	.	8.r	.
!	!	!	!	!	!LO:TX:b:t=dolce	!
.	.	.	(16g/Jk	.	(16gg\	.
8r	.	.	[2cc\)	.	[2ccc\)	.
8C'\L	.	.	.	.	.	.
8Dn'\	.	.	.	.	.	.
8En'\J	.	.	.	.	.	.
=164	=164	=164	=164	=164	=164	=164
8F'\L	(2.dn/)	.	8.cc/L]	.	8.ccc\L]	.
8G'\	.	.	.	.	.	.
.	.	.	(16g/Jk	.	(16gg\Jk	.
8A-'\	.	.	[2cc\)	.	[2ccc\)	.
8B-'\	.	.	.	.	.	.
8c'\	.	.	.	.	.	.
8d-X'\J	.	.	.	.	.	.
=165	=165	=165	=165	=165	=165	=165
*	*	*	*xywh-#11:180,2666,3582,685	*	*xywh-#11:180,2666,3582,685	*
8c\	4en/)	.	(2.cc\]	.	8.ccc\L]	<
8r	.	.	.	.	.	.
.	.	.	.	.	16gg\Jk	.
4r	8r	.	.	.	[2ccc\	.
!	!LO:TX:b:t=legg.	!	!	!	!	!
.	8c'/L	.	.	.	.	.
4r	8dn'/	.	.	.	.	.
.	8e'/J	.	.	.	.	.
=166	=166	=166	=166	=166	=166	=166
*xywh-#10:485,2851,3684,692	*xywh-#10:485,2851,3684,692	*	*	*	*	*
2.r	8f'/L	.	(2.ddn\)	.	2.ccc\_	[[
.	8g'/	.	.	.	.	.
.	8a-'/	.	.	.	.	.
.	8b-'/	.	.	.	.	.
.	8cc'/	.	.	.	.	.
.	8dd-X'/J	.	.	.	.	.
=167	=167	=167	=167	=167	=167	=167
2.r	4cc\	.	8een\)	.	8.ccc\L]	p
.	.	.	8r	.	.	.
.	.	.	.	.	(16gg\Jk	.
.	8r	.	4r	.	[2ccc\)	.
.	8G'/L	.	.	.	.	.
.	8B-'/	.	4r	.	.	.
.	8d-'/J	.	.	.	.	.
=168	=168	=168	=168	=168	=168	=168
2.r	8c/	.	4r	.	8.ccc\L]	.
.	8r	.	.	.	.	.
.	.	.	.	.	(16gg\Jk	.
!	!	!	!	!	!LO:TX:b:t=legg.	!
.	4r	.	8r	.	[2ccc\)	.
.	.	.	8bn'\L	.	.	.
.	4r	.	8ddn'\	.	.	.
.	.	.	8ff'\J	.	.	.
!!pagebreak:original
=169	=169	=169	=169	=169	=169	=169
2.r	4r	.	8.een\L	.	8.ccc\L]	.
.	.	.	(16g\Jk	.	(16gg\Jk	.
.	8r	.	[2cc\)	.	[2ccc\)	.
.	8c'/L	.	.	.	.	.
.	8en'/	.	.	.	.	.
.	8g'/J	.	.	.	.	.
=170	=170	=170	=170	=170	=170	=170
2.r	8f'/L	.	8cc\L]	.	2.ccc\_	.
.	8c'/	.	8cc'\	.	.	.
.	8d-'/	.	8dd-X'\	.	.	.
.	8e-X'/	.	8ee-'\	.	.	.
.	8f'/	.	8ff'\	.	.	.
.	8g'/J	.	8gg'\J	.	.	.
=171	=171	=171	=171	=171	=171	=171
!	!LO:TX:b:t=espr.	!	!	!	!	!
4AAA-/ 4AA-	(2.a-/	.	8aa-'\	.	8ccc\L]	p
.	.	.	8r	.	(8ddd-\	<
4E-\ 4A- 4c	.	.	4r	.	8dddn\	.
.	.	.	.	.	8eee-\	.
4E-\ 4A- 4c	.	.	4r	.	8ggg\	.
.	.	.	.	.	8fff\J	[[
=172	=172	=172	=172	=172	=172	=172
*xywh-#10:472,3518,3704,692	*xywh-#10:472,3518,3704,692	*	*xywh-#11:216,3346,3535,715	*	*xywh-#11:216,3346,3535,715	*
!	!	!	!	!	!LO:TX:b:t=legg.	!
4BBB-/ 4BB-	[2.g/)	.	8r	.	(2.eee-\)	<[
.	.	.	(8cc\L	.	.	.
4E-\ 4G 4d-	.	.	8dd-\)	.	.	.
.	.	.	8ee-'\	.	.	.
4E-\ 4G 4d-	.	.	8ff'\	.	.	.
.	.	.	8gg'\J	.	.	.
=173	=173	=173	=173	=173	=173	=173
4BBBn/ 4BBn	8g/]	.	(4.aa-\	.	(2.dddn\)	>
.	8r	.	.	.	.	.
4A-\ 4dn	([2f/	.	.	.	.	.
.	.	.	8gg\L	.	.	.
4A-\ 4d	.	.	8bb-\	.	.	.
.	.	.	8aa-\J	.	.	.
=174	=174	=174	=174	=174	=174	=174
4CC/ 4C	8f/L]	.	[4gg\	.	4.eee-\)	.
.	8g/J)	.	.	.	.	.
4A-\ 4c	([2e-/	.	8gg\])	.	.	.
.	.	.	8r	.	(8dddn\L	]
4A-\ 4c	.	.	4r	.	8fff\	.
.	.	.	.	.	8eee-\J	.
=175	=175	=175	=175	=175	=175	=175
4BBB-/ 4BB-	8e-/L]	.	(4.bb-\	.	4.ggg\)	.
.	8f/J)	.	.	.	.	.
4F\ 4A-	(4.d-/	<	.	.	.	.
.	.	.	8aa-\L	.	(8fff\L	<
4F\ 4A-	.	.	8bb-\	.	8ggg\	.
.	8c/	.	8aa-\J	.	8fff\J	.
=176	=176	=176	=176	=176	=176	=176
4DD-/ 4D-	2B-/)	.	8bb-\L	.	8ggg\L	.
.	.	.	8aa-\	.	8fff\	.
4F\ 4A-	.	.	8bb-\	.	8ggg\	.
.	.	.	8aa-\	.	8fff\	.
4F\ 4A-	(8c/L	.	8bb-\	.	8ggg\	.
.	8d-/J	[	8aa-\J	.	8fff\J	[[
=177	=177	=177	=177	=177	=177	=177
4BBB-/ 4BB-	8en/L	.	8bb-\L	.	8ggg\L	.
.	8g/J	.	8aa-\	.	8fff\	.
4F\ 4A-	4f/)	.	8bb-\	.	8ggg\	>
.	.	.	8aa-\	.	8fff\	.
4F\ 4A-	(8d-/L	>	8bb-\	.	8ggg\	.
.	8c/J	.	8aa-\J)	.	8fff\J)	.
=178	=178	=178	=178	=178	=178	=178
*xywh-#10:465,4205,3718,812	*xywh-#10:465,4205,3718,812	*	*xywh-#11:198,4037,3559,870	*	*xywh-#11:198,4037,3559,870	*
4EE-/ 4E-	4B-/)	.	8aa-'\L	.	8fff'\L	.
.	.	.	8gg'\	.	8eee-'\	.
4G\ 4d-	4r	]	8aa-'\	.	8fff'\	.
.	.	.	8gg'\	.	8eee-'\	.
4G\ 4d-	[4e-/	.	8bb-'\	.	8fff'\	.
.	.	.	8ddd-'\J	.	8eee-'\J	]]
=179	=179	=179	=179	=179	=179	=179
4AAA-/ 4AA-	8e-/]	<	8ccc\	.	8fff\	.
.	8r	.	8r	.	8r	.
4E-\ 4A- 4c	([2a-/	[[	([2aa-\	.	2eee-T\	<
4E-\ 4A- 4c	.	.	.	.	.	.
=180	=180	=180	=180	=180	=180	=180
4BBB-/ 4BB-	8a-/L]	.	8aa-\L]	.	2.eee-\	.
.	8g/J)	.	8gg\J)	.	.	.
4E-\ 4G 4d-	[2b-\	.	[2bb-\	.	.	.
4E-\ 4G 4d-	.	.	.	.	.	.
=181	=181	=181	=181	=181	=181	=181
4BBBn/ 4BBn	8b-\]	.	8bb-\]	.	2.eee-\	.
.	8r	.	8r	.	.	.
4A-\ 4dn	(4.a-/	.	(4.aa-\	.	.	.
4A-\ 4d	.	.	.	.	.	.
.	8f/	.	8ff\	.	.	.
!!linebreak:original
=182	=182	=182	=182	=182	=182	=182
4CC/ 4C	[2.e-/)	.	[2.ee-\)	.	2.eee-\	.
4A-\ 4c	.	.	.	.	.	.
4A-\ 4c	.	.	.	.	.	.
=183	=183	=183	=183	=183	=183	=183
4FF/	8.e-/L]	.	8ee-\]	.	8eee-\	.
.	.	.	8r	.	8r	[
.	(16a-/Jk	.	.	.	.	.
4.A-^\ 4.e-	4c/)	.	4.f^/ 4.cc	.	4r	p
.	4r	p	.	.	4r	.
8A-\ 8e-	.	.	8f/ 8cc	.	.	.
=184	=184	=184	=184	=184	=184	=184
8.A-\L 8.e-	2.r	.	8.f/L 8.cc	.	2.r	.
16A-\Jk 16e-	.	.	16f/Jk 16cc	.	.	.
4A-\ 4e-	.	.	4f/ 4cc	.	.	.
4A-\ 4e-	.	.	4f/ 4cc	.	.	.
!!pagebreak:original
=185	=185	=185	=185	=185	=185	=185
*xywh-#12:542,390,3673,982	*xywh-#12:542,390,3673,982	*	*xywh-#13:141,475,3683,938	*	*xywh-#13:141,475,3683,938	*
4A-\ 4e-	2.r	.	4f/ 4cc	.	4r	.
4r	.	.	(4.ff^\	.	(4.ccc^\ 4.aaa-	.
4r	.	.	.	.	.	.
.	.	.	8bb-\	.	8ddd-X\ 8ggg	.
=186	=186	=186	=186	=186	=186	=186
2.r	2.r	.	8aa-\L)	.	8ccc\L) 8fff	.
!	!	!	!	!	!LO:TX:b:t=legg.	!
.	.	.	(8ff\	.	(8aa-\ 8ddd-X	.
.	.	.	8ee-\)	.	8gg\) 8ccc	.
.	.	.	8dd-'\	.	8ff'\ 8bb-	.
.	.	.	8cc'\	.	8ee-'\ 8aa-	.
.	.	.	8b-'\J	.	8dd-'\J 8gg	.
=187	=187	=187	=187	=187	=187	=187
8.r	4r	.	8a-/	.	8cc\ 8ff	.
.	.	.	8r	.	8r	.
(16E-\	.	.	.	.	.	.
!	!LO:TX:b:t=legg.	!	!	!	!	!
[2AA-/)	4.F/ 4.A- 4.e-	p	4.f^/ 4.a-	.	4.ee-^\ 4.ff	p
.	8F/ 8A- 8e-	.	8f/ 8a-	.	8ee-\ 8ff	.
=188	=188	=188	=188	=188	=188	=188
8AA-/]	8.F/L 8.A- 8.e-	.	8.f/L 8.a-	.	8.ee-\L 8.ff	.
8r	.	.	.	.	.	.
.	16F/Jk 16A- 16e-	.	16f/Jk 16a-	.	16ee-\Jk 16ff	.
4r	4F/ 4A- 4e-	.	4f/ 4a-	.	4ee-\ 4ff	.
4r	4F/ 4A- 4e-	.	4f/ 4a-	.	4ee-\ 4ff	.
=189	=189	=189	=189	=189	=189	=189
2.r	8F/ 8A- 8e-	.	8f/ 8a-	.	8ee-\ 8ff	.
.	8r	.	8r	.	8r	.
!	!	!	!	!	!LO:TX:b:t=legg.	!
.	2r	.	(4.a-/	.	(4.ee-\ 4.ccc	.
.	.	.	8dd-\	.	8een\ 8bb-	.
=190	=190	=190	=190	=190	=190	=190
2.r	2.r	.	8cc\L)	.	8ff\L) 8aa-	.
.	.	.	(8b-\	.	(8dd-\ 8gg	.
.	.	.	8a-\)	.	8cc\) 8ff	.
.	.	.	8dd-'\	.	8een'\ 8bb-	.
.	.	.	8cc'\	.	8ff'\ 8aa-	.
.	.	.	8b-'\J	.	8dd-'\J 8gg	.
=191	=191	=191	=191	=191	=191	=191
*xywh-#12:526,1340,3689,694	*xywh-#12:526,1340,3689,694	*	*xywh-#13:125,1319,3739,763	*	*xywh-#13:125,1319,3739,763	*
4r	2.r	.	8a-/	.	8cc\ 8ff	.
.	.	.	8r	.	8r	.
(8A-^\L	.	.	4r	.	(8cc^/L	.
8d-\)	.	.	.	.	8b-/)	.
8c'\	.	.	4r	.	8a-'/	.
8B-'\J	.	.	.	.	8g'/J	.
=192	=192	=192	=192	=192	=192	=192
8A-\	2.r	.	4r	.	8f'/	.
8r	.	.	.	.	8r	.
4r	.	.	(8ff^\L	.	(8ccc^\L 8aaa-	.
.	.	.	8bb-\)	.	8ddd-\) 8ggg	.
4r	.	.	8aa-'\	.	8ccc'\ 8fff	.
.	.	.	8gg'\J	.	8bb-'\J 8eee-	.
=193	=193	=193	=193	=193	=193	=193
4r	2.r	.	8ff'\	.	8aa-'\ 8dddn	.
.	.	.	8r	.	8r	.
(8A-^\L	.	.	(8e-^/L	.	(8cc^/L	.
8d-\)	.	.	8en/)	.	8b-/)	.
8c'\	.	.	8f'/	.	8a-'/	.
8B-'\J	.	.	8d-'/J	.	8g'/J	.
=194	=194	=194	=194	=194	=194	=194
8A-'\	8c'/	.	8c'/	.	8f'/	.
8r	8r	.	8r	.	8r	.
(8F^\L	4c'/	.	(8a-^/L	.	4r	.
8A-\)	.	.	8f/)	.	.	.
8F'\	[4A-/	.	8dn'/	.	4r	.
8E-'\J	.	.	8c'/J	.	.	.
=195	=195	=195	=195	=195	=195	=195
8Dn\	8A-/]	.	8B-'/	.	2.r	p
8r	8r	.	8r	.	.	.
*	*clefF4	*	*	*	*	*
32BBB-/LLL	(4.BB-/	p	(4.B-/	.	.	.
32BB-/	.	.	.	.	.	.
32BBB-/	.	.	.	.	.	.
32BB-/	.	.	.	.	.	.
32BBB-/	.	.	.	.	.	.
32BB-/	.	.	.	.	.	.
32BBB-/	.	.	.	.	.	.
32BB-/	.	.	.	.	.	.
32BBB-/	.	.	.	.	.	.
32BB-/	.	.	.	.	.	.
32BBB-/	.	.	.	.	.	.
32BB-/	.	.	.	.	.	.
32BBB-/	8C/	.	8c/	.	.	.
32BB-/	.	.	.	.	.	.
32BBB-/	.	.	.	.	.	.
32BB-/JJJ	.	.	.	.	.	.
!!linebreak:original
=196	=196	=196	=196	=196	=196	=196
*xywh-#12:518,1995,3729,758	*xywh-#12:518,1995,3729,758	*	*	*	*	*
32BBB-/LLL	8Dn\L)	<	8dn/L)	.	2.r	<[
32BB-/	.	.	.	.	.	.
32BBB-/	.	.	.	.	.	.
32BB-/	.	.	.	.	.	.
32BBB-/	8E-'\	.	8e-'/	.	.	.
32BB-/	.	.	.	.	.	.
32BBB-/	.	.	.	.	.	.
32BB-/	.	.	.	.	.	.
32BBB-/	8F'\	.	8f'/	.	.	.
32BB-/	.	.	.	.	.	.
32BBB-/	.	.	.	.	.	.
32BB-/	.	.	.	.	.	.
32BBB-/	8G'\	.	8g'/	.	.	.
32BB-/	.	.	.	.	.	.
32BBB-/	.	.	.	.	.	.
32BB-/	.	.	.	.	.	.
32BBB-/	8A-'\	.	8a-'/	.	.	.
32BB-/	.	.	.	.	.	.
32BBB-/	.	.	.	.	.	.
32BB-/	.	.	.	.	.	.
32BBB-/	8An'\J	[[	8an'/J	.	.	.
32BB-/	.	.	.	.	.	.
32BBB-/	.	.	.	.	.	.
32BB-/JJJ	.	.	.	.	.	.
=197	=197	=197	=197	=197	=197	=197
*	*	*	*xywh-#13:109,2043,3755,708	*	*xywh-#13:109,2043,3755,708	*
32BBB-/LLL	8B-'\L	<	8b-/L	.	8r	.
32BB-/	.	.	.	.	.	.
32BBB-/	.	.	.	.	.	.
32BB-/	.	.	.	.	.	.
32BBB-/	8An'\	.	8c'/	.	8cc'\L	<
32BB-/	.	.	.	.	.	.
32BBB-/	.	.	.	.	.	.
32BB-/	.	.	.	.	.	.
32BBB-/	8A-X'\	.	8dn'/	.	8ddn'\	.
32BB-/	.	.	.	.	.	.
32BBB-/	.	.	.	.	.	.
32BB-/	.	.	.	.	.	.
32BBB-/	8G'\	.	8e-'/	.	8ee-'\	.
32BB-/	.	.	.	.	.	.
32BBB-/	.	.	.	.	.	.
32BB-/	.	.	.	.	.	.
32BBB-/	8F'\	.	8f'/	.	8ff'\	.
32BB-/	.	.	.	.	.	.
32BBB-/	.	.	.	.	.	.
32BB-/	.	.	.	.	.	.
32BBB-/	8E-'\J	.	8g'/J	.	8gg'\J	.
32BB-/	.	.	.	.	.	.
32BBB-/	.	.	.	.	.	.
32BB-/JJJ	.	.	.	.	.	.
=198	=198	=198	=198	=198	=198	=198
*	*^	*	*	*	*	*
32BBB-/LLL	8D-'\L	2ryy	.	8a-'\L	.	8aa-'\L	.
32BB-/	.	.	.	.	.	.	.
32BBB-/	.	.	.	.	.	.	.
32BB-/	.	.	.	.	.	.	.
!	!	!	!	!	!	!LO:TX:t=P:problem=przenośnik oktawowy	!
32BBB-/	8c'\	.	.	8an'\	.	8an'\ 8aan	.
32BB-/	.	.	.	.	.	.	.
32BBB-/	.	.	.	.	.	.	.
32BB-/	.	.	.	.	.	.	.
32BBB-/	8B-'\	.	.	8b-'\	.	8b-'\ 8bb-	.
32BB-/	.	.	.	.	.	.	.
32BBB-/	.	.	.	.	.	.	.
32BB-/	.	.	.	.	.	.	.
32BBB-/	8Bn'\J	.	.	8bn'\	.	8bn'\ 8bbn	.
32BB-/	.	.	.	.	.	.	.
32BBB-/	.	.	.	.	.	.	.
32BB-/	.	.	.	.	.	.	.
*	*clefG2	*	*	*	*	*	*
32BBB-/	4f/ 4a-	8c'\L	.	8cc'\	.	8cc'\ 8ccc	.
32BB-/	.	.	.	.	.	.	.
32BBB-/	.	.	.	.	.	.	.
32BB-/	.	.	.	.	.	.	.
32BBB-/	.	8d-'\J	.	8ddn'\J	.	8ddn'\J 8dddn	[[
32BB-/	.	.	.	.	.	.	.
32BBB-/	.	.	.	.	.	.	.
32BB-/JJJ	.	.	.	.	.	.	.
*	*v	*v	*	*	*	*	*
=199||	=199||	=199||	=199||	=199||	=199||	=199||
*k[b-e-a-]	*k[b-e-a-]	*	*k[b-e-a-]	*	*k[b-e-a-]	*
4EE-/ 4E-	8B-/L 8e- 8g	[	8ee-\L	.	8ee-\ 8eee-	f
.	16r	.	16r	.	8r	.
.	(16B-/Jk	.	(16b-\Jk	.	.	.
4BB-\ 4E- 4G	[2c/)	.	[2cc\)	.	4r	.
4BB-\ 4E- 4G	.	.	.	.	4rc	.
=200	=200	=200	=200	=200	=200	=200
4EE-/ 4E-	8c/L]	.	8cc\]	.	8.r	.
.	16r	.	8r	.	.	.
.	(16c/Jk	.	.	.	(16cc\	.
4BB-\ 4E- 4G	4e-/)	.	4r	.	4ee-\)	.
4BB-\ 4E- 4G	4g'/	.	4r	.	4gg'\	.
=201	=201	=201	=201	=201	=201	=201
*xywh-#12:510,2737,3641,750	*xywh-#12:510,2737,3641,750	*	*	*	*	*
4EE-/ 4E-	8.an/L	.	2.r	.	8.aan\L	.
.	(16f/Jk	.	.	.	(16ff\Jk	.
4C\ 4F 4An	4a/)	.	.	.	4aa\)	.
4C\ 4F 4A	4cc\	.	.	.	4ccc'\	.
=202	=202	=202	=202	=202	=202	=202
4EE-/ 4E-	(12b-/L	.	2.r	.	(12bb-\L	.
.	12g/	.	.	.	12gg\	.
.	12f/J	.	.	.	12ff\J	.
4E-\ 4G 4B-	[2e-/)	.	.	.	[2ee-\)	.
4E-\ 4G 4B-	.	.	.	.	.	.
=203	=203	=203	=203	=203	=203	=203
*	*	*	*xywh-#13:101,2727,3763,684	*	*xywh-#13:101,2727,3763,684	*
4AAA-/ 4AA-	4e-/]	p	8.r	.	8ee-\L]	.
.	.	.	.	.	16r	.
*	*	*	*	*	*8va	*
.	.	.	(16gg\	.	16ggg\Jk	.
4r	4F/ 4c 4e- 4f	.	[2bn\)	.	2bbn\	.
4r	4F/ 4c 4e- 4f	.	.	.	.	.
!!linebreak:original
=204	=204	=204	=204	=204	=204	=204
4FFF/ 4FF	4r	.	8.b\L]	.	8.bbn\L	.
.	.	.	(16cc\Jk	.	16ccc\Jk	.
4r	4F/ 4A- 4e- 4f	.	4ee-\)	.	4eee-\	.
4r	4F/ 4A- 4e- 4f	.	4gg'\	.	4ggg\	.
=205	=205	=205	=205	=205	=205	=205
4AAA-/ 4AA-	4r	<	8.ff\L	.	8.fff\L	.
.	.	.	(16cc\Jk	.	16ccc\Jk	.
4r	4F/ 4c 4e- 4f	.	4ee-\)	.	4eee-\	.
4r	4F/ 4c 4e- 4f	.	4gg'\	.	4ggg\	.
=206	=206	=206	=206	=206	=206	=206
4BBB-/ 4BB-	4r	.	(12ff\L	.	12fff\L	.
.	.	.	12gg\	.	12ggg\	.
.	.	.	12ff\J	.	12fff\J	.
4r	4A-/ 4B- 4d 4f	.	[2bb-\)	.	2bbb-\	.
4r	4A-/ 4B- 4d 4f	[[	.	.	.	.
=207	=207	=207	=207	=207	=207	=207
*xywh-#12:499,3462,3633,710	*xywh-#12:499,3462,3633,710	*	*	*	*	*
4EE-/ 4E-	4r	f	8.bb-\L]	.	8.bbb-\L	.
.	.	.	(16b-\Jk	.	16bb-\Jk 16bbb-	.
4r	4G/ 4B- 4e- 4g	.	[2cc\)	.	2ccc\ 2cccc	.
4r	4G/ 4B- 4e- 4g	.	.	.	.	.
=208	=208	=208	=208	=208	=208	=208
4EE-/ 4E-	4r	.	8.cc\L]	.	8.ccc\L 8.cccc	.
.	.	.	(16cc\Jk	.	16ccc\Jk	.
4r	4G/ 4B- 4e- 4g	.	4ee-\)	.	4eee-\	.
4r	4G/ 4B- 4e- 4g	.	4gg'\	.	4ggg'\	.
*	*	*	*	*	*X8va	*
=209	=209	=209	=209	=209	=209	=209
*	*	*	*xywh-#13:197,3393,3516,716	*	*xywh-#13:197,3393,3516,716	*
!	!	!	!	!	!LO:TX:t=P:problem=przenośnik oktawowy	!
4EE-/ 4E-	4r	.	8.aan\L	.	8.aan\L	.
.	.	.	16ff\Jk	.	(16ff\Jk	.
4r	4An/ 4c 4f 4an	.	4aa\	.	4aa\)	.
4r	4A/ 4c 4f 4a	.	4ccc\	.	4ccc'\	.
=210	=210	=210	=210	=210	=210	=210
4EE-/ 4E-	4r	.	(12bb-\L	.	(12bb-\L	.
.	.	.	12gg\	.	12gg\	.
.	.	.	12ff\J	.	12ff\J	.
4r	4B-/ 4e- 4g 4b-	.	[2ee-\)	.	[2ee-\)	.
4r	4B-/ 4e- 4g 4b-	.	.	.	.	.
=211	=211	=211	=211	=211	=211	=211
4AAA-/ 4AA-	4r	.	8.ee-\L]	.	8.ee-\L]	.
.	.	.	(16gg\Jk	.	(16gg\Jk	.
4r	4F/ 4c 4e- 4f	.	[2bn\)	.	[2bn\)	.
4r	4F/ 4c 4e- 4f	.	.	.	.	.
=212	=212	=212	=212	=212	=212	=212
4FFF/ 4FF	4r	.	8.b\L]	.	8.b\L]	.
.	.	.	(16cc\Jk	.	(16cc\Jk	.
4r	4F/ 4A- 4e- 4f	.	4ee-\)	.	4ee-\)	.
4r	4F/ 4A- 4e- 4f	.	4gg'\	.	4gg'\	.
=213	=213	=213	=213	=213	=213	=213
4AAA-/ 4AA-	4r	.	8.ff\L	.	8.ff\L	.
.	.	.	(16cc\Jk	.	(16cc\Jk	.
4r	4F/ 4c 4e- 4f	.	4ee-\)	.	4ee-\)	.
4FFF/ 4FF	[4F^/ [4c [4e- [4a-	.	[4cc^\ [4ee- [4aa-	.	[4cc^\ [4ee- [4aa-	.
=214	=214	=214	=214	=214	=214	=214
*	*	*	*^	*	*^	*
*xywh-#12:483,4101,3625,878	*xywh-#12:483,4101,3625,878	*	*	*xywh-#13:197,3393,3516,716	*	*	*xywh-#13:197,3393,3516,716	*
4BBB-/ 4BB-	4F/] 4c] 4e-] 4a-]	.	4cc\] 4ee-] 4aa-]	2ryy	.	4cc\] 4ee-] 4aa-]	2ryy	.
4BB-/	4B-/ 4d	f	4.b-^\ 4.dd 4.gg	.	f	4.b-^\ 4.dd 4.gg	.	f
4BBB-/ 4BB-	4A-/ 4B- 4d	.	.	8ryy	.	.	8ryy	.
.	.	.	(24ff/LL	[8b-\	.	(24ff/LL	8a-\ 8dd	.
.	.	.	24gg/	.	.	24gg/	.	.
.	.	.	24ff/JJ	.	.	24ff/JJ	.	.
*	*	*	*v	*v	*	*	*	*
*	*	*	*	*	*v	*v	*
=215||	=215||	=215||	=215||	=215||	=215||	=215||
*	*	*	*xywh-#13:189,4061,3492,1225	*	*xywh-#13:189,4061,3492,1225	*
!	!LO:TX:a:t=Piu mosso e sempre animando.	!	!	!	!	!
[2.EE-/ [2.E-	8G/ 8B- 8e-	.	8b-\]) 8ee-	.	8g\L) 8b- 8ee-	.
.	8r	.	16r	.	16r	.
.	.	.	(16g/	p	(16gg\Jk	p
.	4d'/	p	8b-\L	.	8bb-\L	.
.	.	.	8cc\	.	8ccc\	.
.	[4d-X/	.	8b-\	.	8bb-\	.
.	.	.	8an\J)	.	8aan\J)	.
=216	=216	=216	=216	=216	=216	=216
2.EE-/] 2.E-]	4d-/]	.	(8b-/L	.	(8bb-\L	.
.	.	.	8an/J)	.	8aan\J)	.
.	4c'/	.	(8f/L	.	(8ff\L	.
.	.	.	8a-X/J)	.	8aa-X\J)	.
.	[4c-X^/	.	4a-M/	.	4aa-M\	.
=217	=217	=217	=217	=217	=217	=217
[2.EE-/ [2.E-	4c-/]	.	(8e-/L	.	(8ee-\L	.
.	.	.	8g/J)	.	8gg\J)	.
!	!	!	!LO:TX:t=P:problem=klamra łukowa	!	!LO:TX:t=P:problem=klamra łukowa	!
.	4B-'/	.	12g/L	.	12gg\L	.
.	.	.	12a-/	.	12aa-\	.
.	.	.	12g/J	.	12gg\J	.
.	[4An^/	.	(8f/L	.	(8ff\L	.
.	.	.	8e-/J)	.	8ee-\J)	.
!!pagebreak:original
=218	=218	=218	=218	=218	=218	=218
2.EE-/] 2.E-]	4A/]	.	(8f/L	.	(8ff\L	.
.	.	.	8c/J)	.	8cc\J)	.
.	4A-X'/	.	(8B-/L	.	(8b-\L	.
.	.	.	8d/J)	.	8dd\J)	.
.	4G^/	.	4e-/	.	4ee-\	.
=219	=219	=219	=219	=219	=219	=219
32EE-/LLL	4r	f	2.r	.	(8ee-\L	f
32E-/	.	.	.	.	.	.
32EE-/	.	.	.	.	.	.
32E-/	.	.	.	.	.	.
32EE-/	.	.	.	.	8aa-\J)	.
32E-/	.	.	.	.	.	.
32EE-/	.	.	.	.	.	.
32E-/	.	.	.	.	.	.
!	!	!	!	!	!LO:TX:t=P:problem=klamra łukowa	!
32EE-/	(4c/	<	.	.	12aa-\L	.
32E-/	.	.	.	.	.	.
32EE-/	.	.	.	.	.	.
.	.	.	.	.	12bb-\	.
32E-/	.	.	.	.	.	.
32EE-/	.	.	.	.	.	.
32E-/	.	.	.	.	.	.
.	.	.	.	.	12aa-\J	.
32EE-/	.	.	.	.	.	.
32E-/	.	.	.	.	.	.
32EE-/	4e-/	[[	.	.	(8gg\L	.
32E-/	.	.	.	.	.	.
32EE-/	.	.	.	.	.	.
32E-/	.	.	.	.	.	.
32EE-/	.	.	.	.	8ee-\J)	.
32E-/	.	.	.	.	.	.
32EE-/	.	.	.	.	.	.
32E-/JJJ	.	.	.	.	.	.
=220	=220	=220	=220	=220	=220	=220
4EE-/	2a-/	>	2.r	.	(8ff\L	p
.	.	.	.	.	8cc\J)	.
4E-\ 4B-	.	.	.	.	(8b-\L	.
.	.	.	.	.	8dd\J)	.
4E-\ 4B-	4g/)	]]	.	.	4ee-\	.
!!pagebreak:original
=221	=221	=221	=221	=221	=221	=221
*xywh-#14:557,495,3640,958	*xywh-#14:557,495,3640,958	*	*xywh-#15:152,561,3640,803	*	*xywh-#15:152,561,3640,803	*
!	!	!	!	!	!LO:TX:t=P:problem=przenośnik oktawowy	!
32EE-/LLL	4r	.	(8ee-\L	.	(8ee-\L	f
32E-/	.	.	.	.	.	.
32EE-/	.	.	.	.	.	.
32E-/	.	.	.	.	.	.
32EE-/	.	.	8aa-\J)	.	8aa-\J)	.
32E-/	.	.	.	.	.	.
32EE-/	.	.	.	.	.	.
32E-/	.	.	.	.	.	.
!	!	!	!	!	!LO:TX:t=P:problem=klamra łukowa	!
32EE-/	(4c/	<	12aa-\L	.	12aa-\L	.
32E-/	.	.	.	.	.	.
32EE-/	.	.	.	.	.	.
.	.	.	12bb-\	.	12bb-\	.
32E-/	.	.	.	.	.	.
32EE-/	.	.	.	.	.	.
32E-/	.	.	.	.	.	.
.	.	.	12aa-\J	.	12aa-\J	.
32EE-/	.	.	.	.	.	.
32E-/	.	.	.	.	.	.
32EE-/	4e-/	[[	(8gg\L	.	(8gg\L	.
32E-/	.	.	.	.	.	.
32EE-/	.	.	.	.	.	.
32E-/	.	.	.	.	.	.
32EE-/	.	.	8ee-\J)	.	8ee-\J)	.
32E-/	.	.	.	.	.	.
32EE-/	.	.	.	.	.	.
32E-/JJJ	.	.	.	.	.	.
=222	=222	=222	=222	=222	=222	=222
4EE-/	2a-/	>	(8ff\L	.	(8ff\L	p
.	.	.	8cc\J)	.	8cc\J)	.
4E-\ 4B-	.	.	(8b-\L	.	(8b-\L	.
.	.	.	8dd\J)	.	8dd\J)	.
4E-\ 4B-	4g/)	]]	4ee-\	.	4ee-\	.
=223	=223	=223	=223	=223	=223	=223
*	*^	*	*^	*	*^	*
*	*	*	*	*	*xywh-#15:152,561,3640,803	*	*	*xywh-#15:152,561,3640,803	*
32BBB-/LLL	(2f/	2B-\	.	(8b-/L	(2b-\	.	(8b-/L	(2b-\	pp
32BB-/	.	.	.	.	.	.	.	.	.
32BBB-/	.	.	.	.	.	.	.	.	.
32BB-/	.	.	.	.	.	.	.	.	.
32BBB-/	.	.	.	8dd/J	.	.	8dd/J	.	.
32BB-/	.	.	.	.	.	.	.	.	.
32BBB-/	.	.	.	.	.	.	.	.	.
32BB-/	.	.	.	.	.	.	.	.	.
32BBB-/	.	.	.	4ff/)	.	.	4ff/)	.	.
32BB-/	.	.	.	.	.	.	.	.	.
32BBB-/	.	.	.	.	.	.	.	.	.
32BB-/	.	.	.	.	.	.	.	.	.
32BBB-/	.	.	.	.	.	.	.	.	.
32BB-/	.	.	.	.	.	.	.	.	.
32BBB-/	.	.	.	.	.	.	.	.	.
32BB-/	.	.	.	.	.	.	.	.	.
32BBB-/	8e-/L	4B-\	.	(8gg/L	4an\)	.	(8gg/L	4an\)	.
32BB-/	.	.	.	.	.	.	.	.	.
32BBB-/	.	.	.	.	.	.	.	.	.
32BB-/	.	.	.	.	.	.	.	.	.
32BBB-/	8g/J)	.	.	8ee-/J)	.	.	8ee-/J)	.	.
32BB-/	.	.	.	.	.	.	.	.	.
32BBB-/	.	.	.	.	.	.	.	.	.
32BB-/JJJ	.	.	.	.	.	.	.	.	.
=224	=224	=224	=224	=224	=224	=224	=224	=224	=224
32BBB-/LLL	(2f/	2B-\	pp	(8b-/L	(2b-\	.	(8b-/L	(2b-\	.
32BB-/	.	.	.	.	.	.	.	.	.
32BBB-/	.	.	.	.	.	.	.	.	.
32BB-/	.	.	.	.	.	.	.	.	.
32BBB-/	.	.	.	8dd/J	.	.	8dd/J	.	.
32BB-/	.	.	.	.	.	.	.	.	.
32BBB-/	.	.	.	.	.	.	.	.	.
32BB-/	.	.	.	.	.	.	.	.	.
32BBB-/	.	.	.	4ff/)	.	.	4ff/)	.	.
32BB-/	.	.	.	.	.	.	.	.	.
32BBB-/	.	.	.	.	.	.	.	.	.
32BB-/	.	.	.	.	.	.	.	.	.
32BBB-/	.	.	.	.	.	.	.	.	.
32BB-/	.	.	.	.	.	.	.	.	.
32BBB-/	.	.	.	.	.	.	.	.	.
32BB-/	.	.	.	.	.	.	.	.	.
32BBB-/	8e-/L	4B-\	.	(8gg/L	4an\)	.	(8gg/L	4an\)	.
32BB-/	.	.	.	.	.	.	.	.	.
32BBB-/	.	.	.	.	.	.	.	.	.
32BB-/	.	.	.	.	.	.	.	.	.
32BBB-/	8g/J	.	.	8ee-/J)	.	.	8ee-/J)	.	.
32BB-/	.	.	.	.	.	.	.	.	.
32BBB-/	.	.	.	.	.	.	.	.	.
32BB-/JJJ	.	.	.	.	.	.	.	.	.
*	*v	*v	*	*	*	*	*	*	*
*	*	*	*v	*v	*	*	*	*
=225	=225	=225	=225	=225	=225	=225	=225
32BBB-/LLL	4B-/) 4f	.	(2b-\	.	(8b-/L	(2b-\	<
32BB-/	.	.	.	.	.	.	.
32BBB-/	.	.	.	.	.	.	.
32BB-/	.	.	.	.	.	.	.
32BBB-/	.	.	.	.	8dd/J)	.	.
32BB-/	.	.	.	.	.	.	.
32BBB-/	.	.	.	.	.	.	.
32BB-/	.	.	.	.	.	.	.
32BBB-/	4B-'/	.	.	.	(8ff/L	.	.
32BB-/	.	.	.	.	.	.	.
32BBB-/	.	.	.	.	.	.	.
32BB-/	.	.	.	.	.	.	.
32BBB-/	.	.	.	.	8dd/J)	.	.
32BB-/	.	.	.	.	.	.	.
32BBB-/	.	.	.	.	.	.	.
32BB-/	.	.	.	.	.	.	.
32BBB-/	4B-'/ 4c	.	4an/	.	(8gg/L	4an\	.
32BB-/	.	.	.	.	.	.	.
32BBB-/	.	.	.	.	.	.	.
32BB-/	.	.	.	.	.	.	.
32BBB-/	.	.	.	.	8ee-/J)	.	.
32BB-/	.	.	.	.	.	.	.
32BBB-/	.	.	.	.	.	.	.
32BB-/JJJ	.	.	.	.	.	.	.
!!linebreak:original
=226	=226	=226	=226	=226	=226	=226	=226
*xywh-#14:537,1427,3633,718	*xywh-#14:537,1427,3633,718	*	*xywh-#15:136,1348,3640,715	*	*xywh-#15:136,1348,3640,715	*xywh-#15:136,1348,3640,715	*
32BBB-/LLL	4B-'/ 4d	.	4a-X/	.	(8ff/L	4a-X\	[
32BB-/	.	.	.	.	.	.	.
32BBB-/	.	.	.	.	.	.	.
32BB-/	.	.	.	.	.	.	.
32BBB-/	.	.	.	.	8dd/J)	.	.
32BB-/	.	.	.	.	.	.	.
32BBB-/	.	.	.	.	.	.	.
32BB-/	.	.	.	.	.	.	.
32BBB-/	4B-'/ 4e-	.	4g-X/	.	(8ee-/L	4g-X\	.
32BB-/	.	.	.	.	.	.	.
32BBB-/	.	.	.	.	.	.	.
32BB-/	.	.	.	.	.	.	.
32BBB-/	.	.	.	.	8cc/J)	.	.
32BB-/	.	.	.	.	.	.	.
32BBB-/	.	.	.	.	.	.	.
32BB-/	.	.	.	.	.	.	.
32BBB-/	4B-'/ 4f	.	8dd\L	.	(8dd/L	4f\)	.
32BB-/	.	.	.	.	.	.	.
32BBB-/	.	.	.	.	.	.	.
32BB-/	.	.	.	.	.	.	.
32BBB-/	.	.	8b-\J)	.	8b-/J)	.	.
32BB-/	.	.	.	.	.	.	.
32BBB-/	.	.	.	.	.	.	.
32BB-/JJJ	.	.	.	.	.	.	.
=227	=227	=227	=227	=227	=227	=227	=227
*	*^	*	*^	*	*	*	*
*	*	*xywh-#14:537,1427,3633,718	*	*	*	*	*	*	*
32BBB-/LLL	(2f/	2B-\	pp	(8b-/L	(2b-\	.	(8b-/L	(2b-\	pp <
32BB-/	.	.	.	.	.	.	.	.	.
32BBB-/	.	.	.	.	.	.	.	.	.
32BB-/	.	.	.	.	.	.	.	.	.
32BBB-/	.	.	.	8dd/J	.	.	8dd/J	.	.
32BB-/	.	.	.	.	.	.	.	.	.
32BBB-/	.	.	.	.	.	.	.	.	.
32BB-/	.	.	.	.	.	.	.	.	.
32BBB-/	.	.	.	4ff/)	.	.	4ff/)	.	.
32BB-/	.	.	.	.	.	.	.	.	.
32BBB-/	.	.	.	.	.	.	.	.	.
32BB-/	.	.	.	.	.	.	.	.	.
32BBB-/	.	.	.	.	.	.	.	.	.
32BB-/	.	.	.	.	.	.	.	.	.
32BBB-/	.	.	.	.	.	.	.	.	.
32BB-/	.	.	.	.	.	.	.	.	.
32BBB-/	8e-/L	4B-\	<	(8gg/L	4an\)	.	(8gg/L	4an\)	.
32BB-/	.	.	.	.	.	.	.	.	.
32BBB-/	.	.	.	.	.	.	.	.	.
32BB-/	.	.	.	.	.	.	.	.	.
32BBB-/	8g/J)	.	.	8ee-/J)	.	.	8ee-/J)	.	.
32BB-/	.	.	.	.	.	.	.	.	.
32BBB-/	.	.	.	.	.	.	.	.	.
32BB-/JJJ	.	.	.	.	.	.	.	.	.
=228	=228	=228	=228	=228	=228	=228	=228	=228	=228
32BBB-/LLL	(2f/	2B-\	[	(8b-/L	(2b-\	.	(8b-/L	(2b-\	.
32BB-/	.	.	.	.	.	.	.	.	.
32BBB-/	.	.	.	.	.	.	.	.	.
32BB-/	.	.	.	.	.	.	.	.	.
32BBB-/	.	.	.	8dd/J	.	.	8dd/J	.	.
32BB-/	.	.	.	.	.	.	.	.	.
32BBB-/	.	.	.	.	.	.	.	.	.
32BB-/	.	.	.	.	.	.	.	.	.
32BBB-/	.	.	.	4ff/)	.	.	4ff/)	.	.
32BB-/	.	.	.	.	.	.	.	.	.
32BBB-/	.	.	.	.	.	.	.	.	.
32BB-/	.	.	.	.	.	.	.	.	.
32BBB-/	.	.	.	.	.	.	.	.	.
32BB-/	.	.	.	.	.	.	.	.	.
32BBB-/	.	.	.	.	.	.	.	.	.
32BB-/	.	.	.	.	.	.	.	.	.
32BBB-/	8e-/L	4B-\	.	(8gg/L	4an\)	.	(8gg/L	4an\)	.
32BB-/	.	.	.	.	.	.	.	.	.
32BBB-/	.	.	.	.	.	.	.	.	.
32BB-/	.	.	.	.	.	.	.	.	.
32BBB-/	8g/J	.	.	8ee-/J)	.	.	8ee-/J)	.	.
32BB-/	.	.	.	.	.	.	.	.	.
32BBB-/	.	.	.	.	.	.	.	.	.
32BB-/JJJ	.	.	.	.	.	.	.	.	.
*	*v	*v	*	*	*	*	*	*	*
=229	=229	=229	=229	=229	=229	=229	=229	=229
32BBB-/LLL	4B-/) 4f	.	(8b-/L	(2b-\	.	(8b-/L	(2b-\	[ <
32BB-/	.	.	.	.	.	.	.	.
32BBB-/	.	.	.	.	.	.	.	.
32BB-/	.	.	.	.	.	.	.	.
32BBB-/	.	.	8dd/J	.	.	8dd/J	.	.
32BB-/	.	.	.	.	.	.	.	.
32BBB-/	.	.	.	.	.	.	.	.
32BB-/	.	.	.	.	.	.	.	.
32BBB-/	4B-/	<	4ff/)	.	.	4ff/)	.	.
32BB-/	.	.	.	.	.	.	.	.
32BBB-/	.	.	.	.	.	.	.	.
32BB-/	.	.	.	.	.	.	.	.
32BBB-/	.	.	.	.	.	.	.	.
32BB-/	.	.	.	.	.	.	.	.
32BBB-/	.	.	.	.	.	.	.	.
32BB-/	.	.	.	.	.	.	.	.
32BBB-/	4B-/ 4c	.	(8gg/L	4an\)	.	(8gg/L	4an\)	.
32BB-/	.	.	.	.	.	.	.	.
32BBB-/	.	.	.	.	.	.	.	.
32BB-/	.	.	.	.	.	.	.	.
32BBB-/	.	.	8ee-/J)	.	.	8ee-/J)	.	.
32BB-/	.	.	.	.	.	.	.	.
32BBB-/	.	.	.	.	.	.	.	.
32BB-/JJJ	.	.	.	.	.	.	.	.
!!pagebreak:original
=230	=230	=230	=230	=230	=230	=230	=230	=230
32BBB-/LLL	4B-/ 4d	.	(8ff/L	2.a-X\	.	(8ff/L	2.a-X\	.
32BB-/	.	.	.	.	.	.	.	.
32BBB-/	.	.	.	.	.	.	.	.
32BB-/	.	.	.	.	.	.	.	.
32BBB-/	.	.	8dd/J)	.	.	8dd/J)	.	.
32BB-/	.	.	.	.	.	.	.	.
32BBB-/	.	.	.	.	.	.	.	.
32BB-/	.	.	.	.	.	.	.	.
32BBB-/	4B-/ 4e-	.	(8ee-/L	.	.	(8ee-/L	.	.
32BB-/	.	.	.	.	.	.	.	.
32BBB-/	.	.	.	.	.	.	.	.
32BB-/	.	.	.	.	.	.	.	.
32BBB-/	.	.	8cc/J)	.	.	8cc/J)	.	.
32BB-/	.	.	.	.	.	.	.	.
32BBB-/	.	.	.	.	.	.	.	.
32BB-/	.	.	.	.	.	.	.	.
32BBB-/	4B-/ 4f 4a-X	[[	(8dd/L	.	.	(8dd/L	.	.
32BB-/	.	.	.	.	.	.	.	.
32BBB-/	.	.	.	.	.	.	.	.
32BB-/	.	.	.	.	.	.	.	.
32BBB-/	.	.	8b-/J)	.	.	8b-/J)	.	.
32BB-/	.	.	.	.	.	.	.	.
32BBB-/	.	.	.	.	.	.	.	.
32BB-/JJJ	.	.	.	.	.	.	.	.
*	*	*	*v	*v	*	*	*	*
*	*	*	*	*	*v	*v	*
=231	=231	=231	=231	=231	=231	=231
*xywh-#14:530,2119,3680,705	*xywh-#14:530,2119,3680,705	*	*xywh-#15:120,2039,3672,715	*	*xywh-#15:120,2039,3672,715	*
*	*	*	*	*	*8va	*
4EEE-/ 4EE-	4B-/ 4e- 4g	ff	(8ee-\L	.	(8gg\L 8eee-	[ ff
.	.	.	8gg\J)	.	8ggg\J)	.
4EE-'/ 4E-	[2G/ [2e- [2g	.	(8bb-\L	.	(8bbb-\L	.
.	.	.	8ccc\J)	.	8cccc\J)	.
4DD'/ 4D	.	.	(8bb-\L	.	(8bbb-\L	.
.	.	.	8aan\J)	.	8aaan\J)	.
=232	=232	=232	=232	=232	=232	=232
4DD-X/ 4D-X	4G/] 4e-] 4g]	.	(8bb-\L	.	(8bbb-\L	.
.	.	.	8aan\J)	.	8aaan\J)	.
4CC/ 4C	[2F/ [2e- [2f	.	(8ff\L	.	(8fff\L	.
.	.	.	8aa-X\J)	.	8aaa-X\J)	.
[4CC-X/ [4C-X	.	.	4aa-M\	.	4aaa-M\	.
=233	=233	=233	=233	=233	=233	=233
4CC-/] 4C-]	4F/] 4e-] 4f]	.	(8ee-\L	.	(8eee-\L	.
.	.	.	8gg\J)	.	8ggg\J)	.
!	!	!	!LO:TX:t=P:problem=klamra łukowa	!	!LO:TX:t=P:problem=klamra łukowa	!
4BBB-/ 4BB-	[2B-/ [2e- [2b-	.	12gg\L	.	12ggg\L	.
.	.	.	12aa-\	.	12aaa-\	.
.	.	.	12gg\J	.	12ggg\J	.
[4AAAn/ [4AAn	.	.	(8ff\L	.	(8fff\L	.
.	.	.	8ee-\J)	.	8eee-\J)	.
=234	=234	=234	=234	=234	=234	=234
4AAA/] 4AA]	4B-/] 4e-] 4b-]	.	(8ff\L	.	(8fff\L	.
.	.	.	8cc\J)	.	8ccc\J)	.
4AAA-X/ 4AA-X	4B-/ 4d	.	(8b-\L	.	(8bb-\L	.
.	.	.	8dd\J)	.	8ddd\J)	.
[4GGG/ [4GG	[4B-/ [4e-	.	4ee-'\	.	4eee-'\	.
=235	=235	=235	=235	=235	=235	=235
*	*	*	*xywh-#15:111,2690,3688,763	*	*xywh-#15:111,2690,3688,763	*
4GGG/] 4GG]	4B-/] 4e-]	.	(8b-\L	.	(8bb-\L	.
.	.	.	8ee-\J)	.	8eee-\J)	.
!	!	!	!LO:TX:t=P:problem=klamra łukowa	!	!LO:TX:t=P:problem=klamra łukowa	!
4GGG-X/ 4GG-X	4An/	.	12ee-\L	.	12eee-\L	.
.	.	.	12ff\	.	12fff\	.
.	.	.	12ee-\J	.	12eee-\J	.
[4FFF/ [4FF	4A-X/	.	(8dd\L	.	(8ddd\L	.
.	.	.	8cc\J)	.	8ccc\J)	.
=236	=236	=236	=236	=236	=236	=236
*xywh-#14:526,2777,3680,725	*xywh-#14:526,2777,3680,725	*	*	*	*	*
4FFF/] 4FF]	4G/	.	(8g/L	.	(8gg/L	.
.	.	.	8cc/J)	.	8ccc/J)	.
!	!	!	!LO:TX:t=P:problem=klamra łukowa	!	!LO:TX:t=P:problem=klamra łukowa	!
4EEE-/ 4EE-	4r	.	12cc\L	.	12ccc\L	.
.	.	.	12dd\	.	12ddd\	.
.	.	.	12cc\J	.	12ccc\J	.
*	*clefF4	*	*	*	*	*
[4DD-X/ [4D-X	(4E-^\ 4G	.	(8b-/L	.	(8bb-/L	.
.	.	.	8g/J)	.	8gg/J)	.
=237	=237	=237	=237	=237	=237	=237
4DD-/] 4D-]	4E-\) 4A-	.	(8e-/L	.	8ee-/	.
*	*	*	*	*	*X8va	*
.	.	.	8a-/J)	.	8r	.
!	!	!	!LO:TX:t=P:problem=klamra łukowa	!	!	!
4CC/ 4C	4r	.	12a-/L	.	4r	.
.	.	.	12b-/	.	.	.
.	.	.	12a-/J	.	.	.
[4BBBn/ [4BBn	((4D^\ 4A-	.	(8g/L	.	4r	.
.	.	.	8f/J)	.	.	.
=238	=238	=238	=238	=238	=238	=238
4BBB/] 4BB]	4E-\)) 4G	.	(8e-/L	.	2.r	.
.	.	.	8g/J)	.	.	.
!	!	!	!LO:TX:t=P:problem=klamra łukowa	!	!	!
4CC/ 4C	4r	.	12g/L	.	.	.
.	.	.	12a-/	.	.	.
.	.	.	12g/J	.	.	.
4DD-X/ 4D-X	((4G^\ 4B-	.	(8f/L	.	.	.
.	.	.	8e-/J)	.	.	.
=239	=239	=239	=239	=239	=239	=239
*	*	*	*xywh-#15:79,3410,3720,763	*	*xywh-#15:79,3410,3720,763	*
4DDn/ 4Dn	4A-\)) 4B-	.	(8f/L	.	2.r	.
.	.	.	8b-/J)	.	.	.
4EE-/ 4E-	4r	.	(8cc\L	.	.	.
.	.	.	8b-\J)	.	.	.
4EEn/ 4En	(4B-\ [4c	.	(8a-/L	.	.	.
.	.	.	8g/J)	.	.	.
=240	=240	=240	=240	=240	=240	=240
*xywh-#14:519,3470,3680,672	*xywh-#14:519,3470,3680,672	*	*	*	*	*
4FF/ 4F	4A-\) 4c]	.	(8a-\L	.	2.r	.
.	.	.	8dd\J)	.	.	.
4FF#X/ 4F#X	4r	.	(8ee-\L	.	.	.
.	.	.	8dd\J)	.	.	.
*	*clefG2	*	*	*	*	*
4GG^/ 4G	(4d-X/ [4e-	.	(8cc\L	.	.	.
.	.	.	8b-\J)	.	.	.
=241	=241	=241	=241	=241	=241	=241
*	*	*	*	*	*8va	*
4AAn\ 4An	4c/) 4e-]	.	(8cc\L	.	(8ccc\L	.
.	.	.	8ff\J)	.	8fff\J)	.
4BB-\ 4B-	4r	.	(8gg\L	.	(8ggg\L	.
.	.	.	8ff\J)	.	8fff\J)	.
4BBn^\ 4Bn	4f/ [4g	.	(8ee-\L	.	(8eee-\L	.
.	.	.	8dd\J)	.	8ddd\J)	.
!!linebreak:original
=242	=242	=242	=242	=242	=242	=242
4C\ 4c	4e-/ 4g]	.	(8ee-\L	.	(8eee-\L	.
.	.	.	8aa-\J)	.	8aaa-\J)	.
4CC#X'/ 4C#X	4r	.	(8bb-\L	.	(8bbb-\L	.
.	.	.	8aa-\J)	.	8aaa-\J)	.
4DD'/ 4D	4A-'/ 4B-	.	(8gg\L	.	(8ggg\L	.
.	.	.	8ff\J)	.	8fff\J)	.
=243	=243	=243	=243	=243	=243	=243
4EE-'/ 4E-	4G'/ 4B-	.	(8gg\L	.	(8ggg\L	ff
.	.	.	8bb-\J)	.	8bbb-\J)	.
4DD'/ 4D	4r	.	(8ccc\L	.	(8cccc\L	.
.	.	.	8bb-\J)	.	8bbb-\J)	.
4DD-X'/ 4D-X	4r	.	(8gg\L 8eee-	.	(8ggg\L 8eeee-	.
.	.	.	8bb-\J)	.	8bbb-\J)	.
*	*clefF4	*	*	*	*	*
=244	=244	=244	=244	=244	=244	=244
*	*	*	*xywh-#15:63,4150,3873,1253	*	*xywh-#15:63,4150,3873,1253	*
4CC'/ 4C	[2.E-\ [2.e-	ff	(8ccc\L	.	(8cccc\L	.
.	.	.	8bb-\J)	.	8bbb-\J)	.
4CC-X'/ 4C-X	.	.	(8gg\L 8eee-	.	(8ggg\L 8eeee-	.
.	.	.	8bb-\J)	.	8bbb-\J)	.
4BBB-'/ 4BB-	.	.	(8ccc\L	.	(8cccc\L	.
.	.	.	8bb-\J)	.	8bbb-\J)	.
=245	=245	=245	=245	=245	=245	=245
*xywh-#14:526,4109,3666,898	*xywh-#14:526,4109,3666,898	*	*	*	*	*
4AAAn'/ 4AAn	2.E-\] 2.e-]	.	(8gg\L 8eee-	.	(8ggg\L 8eeee-	.
.	.	.	8bb-\J)	.	8bbb-\J)	.
4AAA-X'/ 4AA-X	.	.	(8ccc\L	.	(8cccc\L	.
.	.	.	8bb-\J)	.	8bbb-\J)	.
4GGG'/ 4GG	.	.	(8gg\L 8eee-	.	(8ggg\L 8eeee-	.
.	.	.	8bb-\J)	.	8bbb-\J)	.
=246	=246	=246	=246	=246	=246	=246
4GGG-X'/ 4GG-X	[2.E-\ [2.e-	.	(8ccc\L	.	(8cccc\L	.
.	.	.	8bb-\J)	.	8bbb-\J)	.
4FFF'/ 4FF	.	.	(8gg\L 8eee-	.	(8ggg\L 8eeee-	.
.	.	.	8bb-\J)	.	8bbb-\J)	.
4FFF-X'/ 4FF-X	.	.	(8ccc\L	.	(8cccc\L	.
.	.	.	8bb-\J)	.	8bbb-\J)	.
=247	=247	=247	=247	=247	=247	=247
32EEE-/LLL	4E-\] 4e-]	.	4gg\ 4eee-	.	4ggg\ 4eeee-	.
32EE-/	.	.	.	.	.	.
32EEE-/	.	.	.	.	.	.
32EE-/	.	.	.	.	.	.
32EEE-/	.	.	.	.	.	.
32EE-/	.	.	.	.	.	.
32EEE-/	.	.	.	.	.	.
32EE-/	.	.	.	.	.	.
32EEE-/	4r	.	4r	.	4r	.
32EE-/	.	.	.	.	.	.
32EEE-/	.	.	.	.	.	.
32EE-/	.	.	.	.	.	.
32EEE-/	.	.	.	.	.	.
32EE-/	.	.	.	.	.	.
32EEE-/	.	.	.	.	.	.
32EE-/	.	.	.	.	.	.
32EEE-/	4r	.	4r	.	4r	.
32EE-/	.	.	.	.	.	.
32EEE-/	.	.	.	.	.	.
32EE-/	.	.	.	.	.	.
32EEE-/	.	.	.	.	.	.
32EE-/	.	.	.	.	.	.
32EEE-/	.	.	.	.	.	.
32EE-/JJJ	.	.	.	.	.	.
!!pagebreak:original
=248	=248	=248	=248	=248	=248	=248
32EEE-/LLL	4G\ 4B- 4e- 4g	.	4ee-\ 4gg 4bb- 4eee-	.	4ggg\ 4bbb- 4eeee- 4gggg	.
32EE-/	.	.	.	.	.	.
32EEE-/	.	.	.	.	.	.
32EE-/	.	.	.	.	.	.
32EEE-/	.	.	.	.	.	.
32EE-/	.	.	.	.	.	.
32EEE-/	.	.	.	.	.	.
32EE-/	.	.	.	.	.	.
*	*	*	*	*	*X8va	*
32EEE-/	4r	.	4r	.	4r	.
32EE-/	.	.	.	.	.	.
32EEE-/	.	.	.	.	.	.
32EE-/	.	.	.	.	.	.
32EEE-/	.	.	.	.	.	.
32EE-/	.	.	.	.	.	.
32EEE-/	.	.	.	.	.	.
32EE-/	.	.	.	.	.	.
32EEE-/	8.r	.	8.r	.	8.r	.
32EE-/	.	.	.	.	.	.
32EEE-/	.	.	.	.	.	.
32EE-/	.	.	.	.	.	.
32EEE-/	.	.	.	.	.	.
32EE-/	.	.	.	.	.	.
32EEE-/	16G\ 16B- 16e-	.	16g\ 16b- 16ee-	.	16gg\ 16bb- 16eee-	.
32EE-/JJJ	.	.	.	.	.	.
=249	=249	=249	=249	=249	=249	=249
32EEE-/LLL	2.G;\ 2.B- 2.e-	.	2.g;\ 2.b- 2.ee-	.	2.gg;\ 2.bb- 2.eee-	.
32EE-/	.	.	.	.	.	.
32EEE-/	.	.	.	.	.	.
32EE-/	.	.	.	.	.	.
32EEE-/	.	.	.	.	.	.
32EE-/	.	.	.	.	.	.
32EEE-/	.	.	.	.	.	.
32EE-/	.	.	.	.	.	.
32EEE-/	.	.	.	.	.	.
32EE-/	.	.	.	.	.	.
32EEE-/	.	.	.	.	.	.
32EE-/	.	.	.	.	.	.
32EEE-/	.	.	.	.	.	.
32EE-/	.	.	.	.	.	.
32EEE-/	.	.	.	.	.	.
32EE-/	.	.	.	.	.	.
32EEE-/	.	.	.	.	.	.
32EE-/	.	.	.	.	.	.
32EEE-/	.	.	.	.	.	.
32EE-/	.	.	.	.	.	.
32EEE-/	.	.	.	.	.	.
32EE-/	.	.	.	.	.	.
32EEE-/	.	.	.	.	.	.
32EE-;/JJJ	.	.	.	.	.	.
==	==	==	==	==	==	==
*-	*-	*-	*-	*-	*-	*-
!!!system-decoration: [(s1,s2)][(s3,s4)]
!!!ENC: Andrzej Gręziak
!!!END: 2022-03-25
!!!IIIF: https://polona.pl/iiif/item/MTE4NDMyOTAx/manifest.json
!!!ENC-iiif: Emilia Ziętek
!!!END-iiif: 2022-09-01
!!!YEC: Copyright 2022 Narodowy Instytut Fryderyka Chopina (https://polishscores.org)
!!!YEM: Licence CC BY 4.0 (https://creativecommons.org/licenses/by/4.0)
